<?xml version="1.0" encoding="UTF-8"?>
<map version="1.10" tiledversion="1.12.2" orientation="orthogonal" renderorder="right-down" width="24" height="10" tilewidth="128" tileheight="128" infinite="0" nextlayerid="9" nextobjectid="489">
 <tileset firstgid="1" source="../tileset/dungeon_tiles.tsx"/>
 <tileset firstgid="60" source="../tileset/items.tsx"/>
 <tileset firstgid="79" source="../tileset/enemy.tsx"/>
 <tileset firstgid="86" source="../tileset/bg.tsx"/>
 <layer id="1" name="background" width="24" height="10">
  <data encoding="csv">
0,0,0,0,0,0,0,0,0,0,0,0,0,0,0,0,0,0,0,0,0,0,0,0,
0,0,0,0,0,0,0,0,0,0,0,0,0,0,0,0,0,0,0,0,0,0,0,0,
0,0,0,0,0,0,0,0,0,0,0,0,0,0,0,0,0,0,0,0,0,0,0,0,
0,0,0,18,0,0,18,0,0,18,0,0,18,0,0,0,18,0,0,18,0,0,0,0,
0,0,0,18,0,0,18,0,0,18,0,0,18,0,0,0,18,0,0,18,0,0,0,0,
0,0,0,18,0,0,18,0,0,18,0,0,18,0,0,0,18,0,0,18,0,0,0,0,
0,0,0,0,0,0,0,0,0,0,0,0,0,0,0,0,0,0,0,0,0,0,0,0,
0,0,0,0,0,0,0,0,0,0,0,0,0,0,0,0,0,0,0,0,0,0,0,0,
0,0,0,0,0,0,0,0,0,0,0,0,0,0,0,0,0,0,0,0,0,0,0,0,
0,0,0,0,0,0,0,0,0,0,0,0,0,0,0,0,0,0,0,0,0,0,0,0
</data>
 </layer>
 <layer id="2" name="collision" width="24" height="10">
  <data encoding="csv">
3,3,2,2,3,3,2,2,3,3,4,4,2,3,3,3,2,3,3,2,3,2,3,3,
3,95,0,0,0,0,0,95,0,0,0,0,0,0,95,0,0,0,0,0,0,0,0,3,
2,0,0,0,0,0,0,0,0,0,0,0,0,0,0,0,0,0,0,0,0,0,0,5,
5,0,0,15,0,0,15,0,0,15,0,0,15,0,0,0,15,0,0,15,0,0,2,2,
0,0,0,0,0,0,0,0,0,0,0,0,0,0,0,0,0,0,0,0,0,0,0,0,
0,0,0,0,0,0,0,0,0,0,0,0,0,0,0,0,0,0,0,0,0,0,0,0,
2,2,2,2,2,2,2,1,1,2,2,2,2,0,0,0,4,3,2,3,4,2,4,4,
3,0,0,0,95,0,0,0,0,0,95,0,0,0,0,0,0,0,0,0,0,0,0,2,
3,0,0,59,0,0,59,0,0,59,0,0,59,0,0,0,0,59,0,0,59,0,0,3,
5,4,2,3,3,3,3,3,3,3,2,3,2,2,2,3,4,3,5,4,2,3,4,3
</data>
 </layer>
 <layer id="5" name="decoration" width="24" height="10">
  <data encoding="csv">
0,0,0,0,0,0,0,0,0,0,0,0,0,0,0,0,0,0,0,0,0,0,0,0,
0,0,0,0,0,0,0,0,0,0,0,0,0,0,0,0,0,0,0,0,0,0,0,0,
0,0,0,0,0,0,0,0,0,0,0,0,0,0,0,0,0,0,0,0,0,0,0,0,
0,0,0,0,0,0,0,0,0,0,0,0,0,0,0,0,0,0,0,0,0,0,0,0,
0,0,0,0,0,0,0,0,0,0,0,0,0,0,0,0,0,0,0,0,0,0,0,0,
0,0,0,0,0,0,0,0,0,0,0,0,0,0,0,0,0,0,0,0,0,0,0,0,
0,0,0,0,0,0,0,0,0,0,0,0,0,0,0,0,0,0,0,0,0,0,0,0,
0,0,0,0,0,0,0,0,0,0,0,0,0,0,0,0,0,0,0,0,0,0,0,0,
0,0,0,0,0,0,0,0,0,0,0,0,0,0,0,0,0,0,0,0,0,0,0,0,
0,0,0,0,0,0,0,0,0,0,0,0,0,0,0,0,0,0,0,0,0,0,0,0
</data>
 </layer>
 <objectgroup id="3" name="objects">
  <object id="483" type="Tile" x="0" y="512" width="128" height="256">
   <properties>
    <property name="type" propertytype="TileEnum" value="EXIT"/>
   </properties>
  </object>
  <object id="487" type="Tile" x="2944" y="512" width="128" height="256">
   <properties>
    <property name="type" propertytype="TileEnum" value="EXIT"/>
   </properties>
  </object>
 </objectgroup>
 <objectgroup id="7" name="enemies"/>
 <objectgroup id="6" name="Rooms" locked="1">
  <object id="481" name="room0" x="0" y="0" width="3072" height="1280"/>
 </objectgroup>
 <layer id="8" name="secret_hide" width="24" height="10">
  <data encoding="csv">
0,0,0,0,0,0,0,0,0,0,0,0,0,0,0,0,0,0,0,0,0,0,0,0,
0,0,0,0,0,0,0,0,0,0,0,0,0,0,0,0,0,0,0,0,0,0,0,0,
0,0,0,0,0,0,0,0,0,0,0,0,0,0,0,0,0,0,0,0,0,0,0,0,
0,0,0,0,0,0,0,0,0,0,0,0,0,0,0,0,0,0,0,0,0,0,0,0,
0,0,0,0,0,0,0,0,0,0,0,0,0,0,0,0,0,0,0,0,0,0,0,0,
0,0,0,0,0,0,0,0,0,0,0,0,0,0,0,0,0,0,0,0,0,0,0,0,
0,0,0,0,0,0,0,0,0,0,0,0,0,0,0,0,0,0,0,0,0,0,0,0,
0,0,0,0,0,0,0,0,0,0,0,0,0,0,0,0,0,0,0,0,0,0,0,0,
0,0,0,0,0,0,0,0,0,0,0,0,0,0,0,0,0,0,0,0,0,0,0,0,
0,0,0,0,0,0,0,0,0,0,0,0,0,0,0,0,0,0,0,0,0,0,0,0
</data>
 </layer>
</map>
