<?xml version="1.0" encoding="UTF-8"?>
<map version="1.10" tiledversion="1.12.2" orientation="orthogonal" renderorder="right-down" width="30" height="9" tilewidth="128" tileheight="128" infinite="0" nextlayerid="9" nextobjectid="294">
 <tileset firstgid="1" source="../tileset/dungeon_tiles.tsx"/>
 <tileset firstgid="70" source="../tileset/items.tsx"/>
 <tileset firstgid="101" source="../tileset/enemy.tsx"/>
 <tileset firstgid="108" source="../tileset/hazards.tsx"/>
 <tileset firstgid="117" source="../tileset/bg.tsx"/>
 <layer id="1" name="background" width="30" height="9">
  <data encoding="csv">
0,0,0,0,0,0,0,0,0,0,0,0,0,0,0,0,0,0,0,0,0,0,0,0,0,0,0,0,0,0,
0,6,6,6,9,0,8,6,6,6,6,6,0,0,0,0,0,0,0,0,0,0,0,0,0,0,0,0,0,0,
0,6,6,6,0,0,0,6,6,6,6,6,0,0,0,0,0,0,0,0,0,0,0,0,0,0,0,0,0,0,
0,0,0,0,0,0,0,6,6,6,6,6,0,0,8,2147483654,6,6,2147483654,0,0,0,0,0,0,0,0,0,0,0,
0,45,45,45,0,0,0,0,0,0,0,0,0,0,0,2147483655,6,2147483654,7,0,0,0,0,0,0,0,0,0,0,0,
0,45,45,45,0,0,0,6,6,6,7,6,0,0,0,6,7,6,7,0,0,0,0,0,8,6,6,6,6,0,
0,45,45,45,0,0,0,8,7,6,6,9,0,0,0,6,2147483654,7,6,0,0,0,0,0,0,8,6,6,6,0,
0,45,45,45,0,0,0,11,6,6,6,10,0,0,0,2147483654,6,7,2147483655,0,0,0,0,0,0,0,6,6,6,0,
0,0,0,0,0,0,0,0,0,0,0,0,0,0,0,0,0,0,0,0,0,0,0,0,0,0,0,0,0,0
</data>
 </layer>
 <layer id="2" name="collision" width="30" height="9">
  <data encoding="csv">
2,2,2,2,2,2,2,2,2,2,2,2,2,2,2,2,2,2,2,2,2,2,2,2,2,2,2,2,2,2,
2,0,0,0,0,0,0,0,0,0,0,0,0,0,0,0,0,0,0,0,0,0,0,0,0,0,0,0,0,2,
2,0,0,0,0,0,0,0,0,0,0,0,0,0,4,2,2,5,2,0,0,0,0,0,0,0,0,0,0,2,
2,2,4,2,0,0,0,0,0,0,0,0,0,0,0,0,0,0,0,0,0,0,0,0,0,0,0,0,0,2,
2,0,0,0,0,0,0,2,5,3,4,2,0,0,0,0,0,0,0,0,0,0,0,0,5,4,3,4,5,2,
2,0,0,0,0,0,0,0,0,0,0,0,0,0,0,0,0,0,0,0,0,0,0,0,0,0,0,0,0,2,
2,0,0,0,0,0,0,0,0,0,0,0,0,0,0,0,0,0,0,0,0,0,0,0,0,0,0,0,0,2,
2,0,0,0,0,0,0,0,62,62,62,0,0,0,0,0,62,0,62,0,0,0,0,0,0,0,65,0,0,2,
2,2,2,2,2,5,2,2,2,2,2,2,2,2,2,2,2,2,2,2,2,2,2,2,2,2,2,2,2,2
</data>
 </layer>
 <layer id="5" name="decoration" width="30" height="9">
  <data encoding="csv">
0,0,0,0,0,0,0,0,0,0,0,0,0,0,0,0,0,0,0,0,0,0,0,0,0,0,0,0,0,0,
0,0,0,0,0,0,0,0,0,0,0,0,0,0,0,0,0,0,0,0,0,0,0,0,0,0,0,0,0,0,
0,0,142,0,0,0,0,0,0,0,0,0,0,0,0,0,0,0,0,0,0,0,0,0,0,0,0,0,0,0,
0,0,0,0,0,0,0,0,0,0,0,0,0,0,0,0,0,0,0,0,0,0,0,0,0,0,0,0,0,0,
0,0,0,0,0,0,0,0,0,0,0,0,0,0,0,0,0,0,0,0,0,0,0,0,0,0,0,0,0,0,
0,0,0,0,0,0,0,0,0,0,0,0,0,0,0,0,0,0,0,0,0,0,0,0,8,0,0,0,0,0,
0,0,0,0,0,0,0,0,0,0,0,0,0,0,0,0,0,0,0,0,0,0,0,0,0,0,0,0,0,0,
0,0,0,0,0,0,0,0,0,0,0,0,0,0,0,0,0,0,0,0,0,0,0,0,142,0,0,0,0,0,
0,0,0,0,0,0,0,0,0,0,0,0,0,0,0,0,0,0,0,0,0,0,0,0,0,0,0,0,0,0
</data>
 </layer>
 <objectgroup id="3" name="objects">
  <object id="1" name="playerStart" type="playerStart" x="3072" y="896" width="128" height="128"/>
  <object id="2" name="chest_r0" gid="73" x="128" y="1024" width="128" height="128"/>
  <object id="3" name="coin_r0" gid="82" x="3584" y="1024" width="128" height="128"/>
  <object id="272" gid="110" x="2816" y="768" width="128" height="128">
   <properties>
    <property name="amplitudeY" type="int" value="0"/>
   </properties>
  </object>
  <object id="273" gid="110" x="2560" y="512" width="128" height="128"/>
  <object id="274" gid="90" x="3712" y="768" width="128" height="156"/>
  <object id="275" gid="82" x="2304" y="256" width="128" height="128"/>
  <object id="276" gid="82" x="2176" y="256" width="128" height="128"/>
  <object id="277" gid="82" x="2048" y="256" width="128" height="128"/>
  <object id="278" gid="82" x="1920" y="256" width="128" height="128"/>
  <object id="282" gid="90" x="0" y="384" width="128" height="156"/>
  <object id="283" gid="82" x="2176" y="1024" width="128" height="128"/>
  <object id="284" gid="82" x="128" y="384" width="128" height="128"/>
  <object id="285" gid="82" x="384" y="384" width="128" height="128"/>
  <object id="286" gid="82" x="256" y="384" width="128" height="128"/>
  <object id="287" gid="82" x="256" y="1024" width="128" height="128"/>
  <object id="288" gid="82" x="384" y="1024" width="128" height="128"/>
 </objectgroup>
 <objectgroup id="7" name="enemies">
  <object id="279" gid="103" x="1664" y="1024" width="128" height="128"/>
  <object id="281" gid="107" x="2048" y="640" width="128" height="128"/>
  <object id="290" gid="106" x="1152" y="512" width="128" height="128"/>
  <object id="291" gid="106" x="1408" y="512" width="128" height="128"/>
  <object id="292" gid="106" x="1152" y="896" width="128" height="128"/>
  <object id="293" gid="106" x="3328" y="512" width="128" height="128">
   <properties>
    <property name="detectionRange" type="float" value="3"/>
   </properties>
  </object>
 </objectgroup>
 <objectgroup id="6" name="Rooms" locked="1">
  <object id="271" name="room0" x="0" y="0" width="3840" height="1152"/>
 </objectgroup>
 <layer id="8" name="secret_hide" width="30" height="9">
  <data encoding="csv">
0,0,0,0,0,0,0,0,0,0,0,0,0,0,0,0,0,0,0,0,0,0,0,0,0,0,0,0,0,0,
0,0,0,0,0,0,0,0,0,0,0,0,0,0,0,0,0,0,0,0,0,0,0,0,0,0,0,0,0,0,
0,0,0,0,0,0,0,0,0,0,0,0,0,0,0,0,0,0,0,0,0,0,0,0,0,0,0,0,0,0,
0,0,0,0,0,0,0,0,0,0,0,0,0,0,0,0,0,0,0,0,0,0,0,0,0,0,0,0,0,0,
0,0,0,0,0,0,0,0,0,0,0,0,0,0,0,0,0,0,0,0,0,0,0,0,0,0,0,0,0,0,
0,0,0,0,0,0,0,0,0,0,0,0,0,0,0,0,0,0,0,0,0,0,0,0,0,0,0,0,0,0,
0,0,0,0,0,0,0,0,0,0,0,0,0,0,0,0,0,0,0,0,0,0,0,0,0,0,0,0,0,0,
0,0,0,0,0,0,0,0,0,0,0,0,0,0,0,0,0,0,0,0,0,0,0,0,0,0,0,0,0,0,
0,0,0,0,0,0,0,0,0,0,0,0,0,0,0,0,0,0,0,0,0,0,0,0,0,0,0,0,0,0
</data>
 </layer>
</map>
