<?xml version="1.0" encoding="UTF-8" standalone="no"?>
<map height="10" infinite="0" nextlayerid="9" nextobjectid="1001" orientation="orthogonal" renderorder="right-down" tiledversion="1.12.2" tileheight="128" tilewidth="128" version="1.10" width="96">
  
 <tileset firstgid="1" source="../tileset/dungeon_tiles.tsx"/>
  
 <tileset firstgid="67" source="../tileset/items.tsx"/>
  
 <tileset firstgid="97" source="../tileset/enemy.tsx"/>
  
 <tileset firstgid="104" source="../tileset/bg.tsx"/>
  
 <tileset firstgid="145" source="../tileset/hazards.tsx"/>
  
 <layer height="10" id="1" name="background" width="96">
    
  <data encoding="csv">
0,0,0,0,0,0,0,0,0,0,0,0,0,0,0,0,0,0,0,0,0,0,0,0,0,0,0,0,0,0,0,0,0,0,0,0,0,0,0,0,0,0,0,0,0,0,0,0,0,0,0,0,0,0,0,0,0,0,0,0,0,0,0,0,0,0,0,0,0,0,0,0,0,0,0,0,0,0,0,0,0,0,0,0,0,0,0,0,0,0,0,0,0,0,0,0,
0,0,0,0,0,0,0,0,0,0,0,0,0,0,0,0,0,0,0,0,0,0,47,0,0,48,0,0,0,0,0,0,0,0,0,0,0,0,0,0,0,0,0,0,0,0,47,0,0,48,0,0,0,0,0,0,0,0,0,0,0,0,0,0,0,0,0,0,0,0,47,0,0,48,0,0,0,53,0,0,0,0,0,0,47,0,48,0,0,0,0,53,0,0,47,0,
0,0,0,0,0,0,0,0,0,0,0,0,0,0,0,0,0,0,0,0,0,0,0,0,0,0,129,0,0,0,0,0,0,0,0,0,0,0,0,0,0,0,0,0,0,0,0,0,0,0,0,0,0,0,0,0,0,0,0,0,0,0,0,0,0,0,0,0,0,0,0,0,0,0,0,0,0,53,0,0,0,0,0,0,0,0,0,0,0,0,0,53,0,0,0,0,
0,0,0,0,0,0,0,0,0,0,0,0,0,0,0,0,0,0,0,0,0,0,0,0,0,0,0,0,0,0,0,0,0,0,0,0,0,0,0,0,0,0,0,0,0,0,0,0,0,0,0,0,0,0,0,0,0,0,0,0,0,0,0,0,0,0,0,0,0,0,0,0,0,0,0,0,0,53,0,0,0,0,0,0,50,0,0,0,0,0,0,53,0,0,0,0,
0,0,0,0,0,0,0,0,0,0,0,0,0,0,0,0,0,0,0,0,0,0,0,0,0,0,0,0,0,0,0,47,0,0,0,0,0,0,0,0,0,0,0,0,0,0,0,0,0,0,0,0,0,0,0,0,0,0,0,0,0,0,0,0,0,0,0,0,0,0,0,0,0,0,0,0,0,0,0,0,0,47,48,0,0,0,129,0,0,0,0,53,0,0,0,0,
0,0,0,0,0,0,0,0,0,0,0,0,0,0,0,50,0,0,49,0,0,0,0,0,0,49,0,0,0,0,0,0,53,0,0,0,0,0,0,0,0,0,0,0,0,0,0,0,0,48,0,0,0,0,0,53,0,0,0,0,0,0,0,0,0,0,0,0,0,0,0,0,0,0,0,32,0,53,0,0,0,0,0,0,0,0,0,0,0,0,0,0,0,0,0,0,
0,0,0,0,0,0,0,0,0,0,0,0,0,50,0,0,0,0,0,49,0,0,0,0,0,0,0,0,0,0,0,0,53,0,0,0,0,0,0,0,0,0,0,0,0,0,0,0,0,0,0,0,0,0,0,53,0,0,0,0,0,0,0,0,0,0,0,0,0,0,0,0,0,0,0,0,0,0,0,0,0,0,0,0,0,53,0,0,0,0,0,53,0,0,0,0,
0,0,0,0,0,0,0,0,0,0,0,50,0,0,0,0,0,0,0,0,49,0,0,0,0,0,0,0,0,0,0,0,0,0,0,0,0,0,0,0,0,0,0,0,0,0,0,0,0,0,0,0,0,0,0,0,0,0,0,0,0,0,0,0,0,0,0,0,0,0,0,0,0,48,0,0,0,53,0,0,0,0,0,0,0,53,0,0,0,0,0,53,0,0,0,0,
0,20,0,0,20,0,0,0,0,50,0,0,0,0,0,0,0,0,0,0,0,49,0,0,0,0,0,0,0,0,50,0,0,49,0,0,0,0,0,0,0,0,0,0,0,0,50,0,0,49,0,0,0,0,0,0,0,0,0,0,0,49,0,0,0,0,0,0,0,0,50,0,0,0,0,0,0,53,0,0,0,0,0,0,0,53,0,0,0,0,0,53,0,0,50,0,
0,0,0,0,0,0,0,0,0,0,0,0,0,0,0,0,0,0,0,0,0,0,0,0,0,0,0,0,0,0,0,0,0,0,0,0,0,0,0,0,0,0,0,0,0,0,0,0,0,0,0,0,0,0,0,0,0,0,0,0,0,0,0,0,0,0,0,0,0,0,0,0,0,0,0,0,0,0,0,0,0,0,0,0,0,0,0,0,0,0,0,0,0,0,0,0
</data>
   
 </layer>
  
 <layer height="10" id="2" name="collision" width="96">
    
  <data encoding="csv">
2,2,2,2,2,2,2,2,2,2,2,2,2,2,2,2,2,2,2,2,2,2,2,2,2,2,2,2,2,2,2,2,2,2,2,2,2,2,2,2,2,2,2,2,2,2,2,5,2,2,2,2,2,2,2,5,2,2,2,2,2,2,2,5,2,2,2,5,2,2,2,2,2,2,2,2,2,2,2,2,2,2,2,2,2,2,2,2,2,2,2,2,2,2,2,2,
2,0,0,0,0,0,0,0,0,0,0,0,0,0,0,0,0,0,0,0,0,0,0,2,2,0,0,0,0,0,0,0,0,0,0,0,0,0,0,0,0,0,0,0,0,0,0,2,2,0,0,0,0,0,0,0,0,0,0,0,0,0,0,0,0,0,0,0,0,0,0,2,2,0,0,0,0,0,0,0,0,0,0,0,0,2,0,0,0,0,0,0,0,0,0,2,
2,0,0,0,0,0,0,0,0,0,3,0,0,0,0,0,0,0,0,0,0,0,0,2,2,0,0,0,0,0,0,0,0,0,0,0,0,0,0,0,0,0,0,4,4,0,0,2,5,0,0,0,0,0,0,0,0,0,0,0,0,0,0,0,0,0,0,0,3,0,3,2,2,0,0,0,0,0,0,0,0,0,0,0,0,2,0,0,0,0,0,0,0,0,0,2,
2,0,0,0,0,0,0,0,0,3,0,0,0,0,0,0,0,0,0,0,0,0,0,2,2,2,3,4,5,2,3,4,5,0,0,0,4,4,0,4,4,0,0,0,0,0,0,0,0,0,0,0,62,33,33,62,0,0,0,0,0,0,0,0,0,0,0,0,0,0,0,5,2,0,0,0,0,0,0,0,0,2,2,0,0,2,0,0,0,0,0,0,0,0,0,2,
2,62,62,62,0,0,0,0,3,0,0,0,0,0,0,0,0,0,0,0,0,0,0,2,2,0,0,0,0,0,0,0,4,0,0,0,0,0,0,0,0,0,0,0,0,4,4,2,5,2,2,2,5,2,2,5,0,0,0,0,0,0,0,0,0,0,0,0,3,0,3,2,2,2,2,2,2,2,2,0,0,0,0,0,5,2,0,0,0,0,0,0,0,0,0,2,
2,3,3,3,3,3,3,3,0,0,0,0,0,0,0,0,2,2,0,0,0,0,0,2,2,0,0,0,0,0,0,0,0,0,0,0,0,0,0,0,0,0,0,0,0,0,0,2,2,0,0,0,0,0,0,0,0,0,0,2,2,0,0,0,0,0,0,0,0,0,0,0,0,0,0,0,0,0,0,0,0,0,0,0,4,2,2,2,2,2,2,2,2,0,0,2,
2,0,0,0,0,0,0,0,0,0,0,0,0,0,2,2,2,2,4,62,0,0,0,2,2,2,2,0,0,0,0,0,0,0,0,0,0,0,0,0,0,0,0,4,4,0,0,5,2,0,0,0,0,0,0,0,33,2,2,5,2,0,0,0,0,0,0,0,3,0,3,2,2,2,2,2,2,2,2,0,0,0,0,0,0,0,0,0,0,0,0,0,0,0,0,2,
2,0,0,0,0,0,0,0,0,0,0,62,2,2,2,2,2,2,2,4,0,0,0,0,0,0,0,0,0,0,0,0,4,0,0,0,0,0,0,0,0,0,0,0,0,0,0,3,2,0,0,0,0,0,33,2,2,2,2,2,2,0,0,0,0,0,0,0,0,0,0,2,5,0,0,0,0,0,0,0,0,0,0,0,0,0,0,0,0,0,0,0,0,0,62,2,
2,0,0,0,0,0,0,0,0,0,2,2,4,4,2,2,4,2,2,4,2,62,0,0,0,0,0,0,0,0,62,3,4,62,0,0,0,0,0,62,0,0,0,0,0,0,0,2,3,62,0,33,62,2,5,2,2,5,2,2,2,33,33,0,62,62,0,0,0,0,0,2,2,0,0,0,0,0,0,0,0,0,0,0,0,0,0,0,0,0,0,0,0,0,2,2,
2,2,2,2,2,2,2,2,2,2,2,2,2,2,2,2,2,2,2,2,2,2,2,2,2,2,2,2,2,2,2,2,2,2,2,2,2,2,2,2,2,2,2,2,2,2,2,2,2,2,2,2,2,2,2,2,2,2,5,2,2,2,2,2,2,2,5,2,2,2,2,5,2,2,2,2,2,2,2,2,2,2,2,2,2,2,2,2,2,2,2,2,2,2,2,2
</data>
   
 </layer>
  
 <layer height="10" id="5" name="decoration" width="96">
    
  <data encoding="csv">
0,0,0,0,0,0,0,0,0,0,0,0,0,0,0,0,0,0,0,0,0,0,0,0,0,0,0,0,0,0,0,0,0,0,0,0,0,0,0,0,0,0,0,0,0,0,0,0,0,0,0,0,0,0,0,0,0,0,0,0,0,0,0,0,0,0,0,0,0,0,0,0,0,0,0,0,0,0,0,0,0,0,0,0,0,0,0,0,0,0,0,0,0,0,0,0,
0,0,0,0,0,0,0,0,0,0,0,0,0,0,0,0,0,0,0,0,0,0,0,0,87,0,0,0,0,0,0,0,0,0,0,0,0,0,0,0,0,0,0,0,0,0,0,0,0,0,0,0,0,0,0,0,0,0,0,0,0,0,0,0,0,0,0,0,0,0,0,0,0,0,0,0,0,0,0,0,0,0,0,0,0,0,0,0,0,0,0,0,0,0,0,0,
0,0,0,0,0,0,0,0,0,0,0,0,0,0,0,0,0,0,0,0,0,0,0,0,0,0,0,0,0,0,0,0,0,0,0,0,0,0,0,0,0,0,0,0,0,0,0,0,0,0,0,0,0,0,0,0,0,0,0,0,0,0,0,0,0,0,0,0,0,0,0,0,0,0,0,0,0,0,0,0,0,0,0,0,0,0,0,0,0,0,0,0,0,0,0,0,
87,0,0,0,0,0,0,0,0,0,0,0,0,0,0,0,0,0,0,0,0,0,0,0,0,0,0,0,0,0,0,0,0,0,0,0,0,0,0,0,0,0,0,0,0,0,0,0,0,0,0,0,0,0,0,0,0,0,0,0,0,0,0,0,0,0,0,0,126,0,126,0,0,0,0,0,0,0,0,0,0,0,0,0,0,0,0,0,0,0,0,0,0,0,0,0,
0,0,0,0,0,0,0,0,0,0,0,0,0,0,0,0,0,124,0,0,0,0,0,128,0,0,0,0,113,0,0,126,0,0,0,0,0,0,0,0,0,0,0,0,0,0,0,87,0,0,0,0,0,0,0,0,0,0,0,0,0,0,0,0,0,0,0,0,0,0,0,0,0,0,0,0,0,0,0,0,0,0,0,0,0,0,0,0,0,0,0,0,124,0,0,0,
0,0,0,0,0,0,0,0,0,0,0,0,0,0,0,0,0,0,0,0,0,0,0,0,0,79,0,0,0,0,0,0,0,0,0,0,0,0,0,120,0,0,0,0,0,121,0,0,0,0,0,0,0,0,0,0,0,0,0,0,0,0,0,0,0,0,0,0,126,0,126,0,0,0,0,0,0,0,0,0,0,0,0,0,128,0,0,0,0,0,0,0,0,0,0,0,
0,121,0,0,0,0,121,0,0,0,0,0,0,0,0,0,87,0,0,0,0,0,0,0,87,0,0,0,0,0,0,0,0,0,0,0,0,0,0,0,0,0,0,0,0,0,0,0,0,0,0,0,0,0,0,0,0,0,0,0,0,0,0,0,0,0,0,0,0,0,0,0,0,0,0,0,0,0,0,0,0,0,0,0,0,0,0,0,0,0,0,0,0,0,0,0,
0,0,0,0,0,0,0,0,0,0,0,0,0,0,0,0,137,0,0,0,0,0,0,0,0,0,126,0,0,0,0,0,0,0,0,0,0,0,0,0,0,0,0,0,0,0,0,0,0,0,0,0,0,0,0,0,0,0,0,0,0,0,0,0,0,0,0,0,126,0,126,0,0,0,0,0,0,0,0,0,0,0,0,0,0,0,0,0,0,0,0,0,0,0,0,0,
0,0,0,0,0,0,0,0,0,134,0,0,0,0,0,0,0,0,0,0,0,0,0,0,0,0,0,0,0,0,0,0,0,0,0,0,0,0,0,0,0,0,0,0,0,0,0,0,0,0,0,0,0,0,0,0,0,0,121,0,0,0,0,0,0,0,0,0,0,0,0,0,0,0,0,0,0,0,0,0,0,0,0,0,0,0,0,0,0,0,111,0,0,0,0,0,
0,0,0,0,0,0,0,0,0,0,0,0,0,0,0,0,0,0,0,0,0,0,0,0,0,0,0,0,0,0,0,0,0,0,0,0,0,0,0,0,0,0,0,0,0,0,0,0,0,0,0,0,0,0,0,0,0,0,0,0,0,0,0,0,0,0,0,0,0,0,0,0,0,0,0,0,0,0,0,0,0,0,0,0,0,0,0,0,0,0,0,0,0,0,0,0
</data>
   
 </layer>
  
 <objectgroup id="3" name="objects">
    
  <object height="128" id="1" name="playerStart" type="playerStart" width="128" x="3328" y="256"/>
    
  <object gid="79" height="128" id="4" name="coin_r0" width="128" x="1536" y="896"/>
    
  <object gid="70" height="128" id="7" name="chest_r1" width="128" x="5632" y="256"/>
    
  <object gid="70" height="128" id="8" name="chest_r1" width="128" x="5504" y="768"/>
    
  <object gid="70" height="128" id="9" name="chest_r2" width="128" x="8064" y="1152"/>
    
  <object gid="79" height="128" id="11" name="coin_r2" width="128" x="8192" y="512"/>
    
  <object gid="79" height="128" id="14" name="coin_r3" width="128" x="11392" y="640"/>
    
  <object gid="70" height="128" id="15" name="chest_r3" width="128" x="9344" y="1152"/>
    
  <object height="128" id="16" name="exitGate" type="exitGate" width="128" x="11008" y="512">
      
   <properties>
        
    <property name="nextLevel" value="maps/world2/level_09.tmx"/>
       
   </properties>
     
  </object>
    
  <object gid="79" height="128" id="17" name="coin_platform_r0" width="128" x="1664" y="896"/>
    
  <object gid="79" height="128" id="18" name="coin_platform_r1" width="128" x="4096" y="384"/>
    
  <object gid="79" height="128" id="19" name="coin_platform_r2" width="128" x="8320" y="512"/>
    
  <object gid="79" height="128" id="20" name="coin_platform_r3" width="128" x="10368" y="384"/>
    
  <object gid="79" height="128" id="971" width="128" x="3968" y="384"/>
    
  <object gid="79" height="128" id="972" width="128" x="4608" y="384"/>
    
  <object gid="79" height="128" id="973" width="128" x="4736" y="384"/>
    
  <object gid="79" height="128" id="974" width="128" x="4992" y="384"/>
    
  <object gid="79" height="128" id="975" width="128" x="5120" y="384"/>
    
  <object gid="79" height="128" id="976" width="128" x="5760" y="512"/>
    
  <object gid="79" height="128" id="977" width="128" x="5888" y="512"/>
    
  <object gid="79" height="128" id="978" width="128" x="5632" y="768"/>
    
  <object gid="79" height="128" id="979" width="128" x="5504" y="256"/>
    
  <object gid="147" height="128" id="980" width="128" x="1408" y="640">
      
   <properties>
        
    <property name="amplitudeY" type="float" value="0.5"/>
       
   </properties>
     
  </object>
    
  <object gid="93" height="101" id="981" width="101" x="640" y="640"/>
    
  <object gid="70" height="128" id="982" width="128" x="6400" y="1152"/>
    
  <object gid="79" height="128" id="983" name="coin_platform_r3" width="128" x="10496" y="384"/>
    
  <object gid="79" height="128" id="984" width="128" x="1280" y="256"/>
    
  <object gid="79" height="128" id="985" width="128" x="1152" y="384"/>
    
  <object gid="79" height="128" id="986" width="128" x="1024" y="512"/>
    
  <object gid="79" height="128" id="987" width="128" x="896" y="640"/>
    
  <object gid="79" height="128" id="988" width="128" x="768" y="640"/>
    
  <object gid="79" height="128" id="989" width="128" x="128" y="512"/>
    
  <object gid="79" height="128" id="990" width="128" x="256" y="512"/>
    
  <object gid="79" height="128" id="991" width="128" x="384" y="512"/>
    
  <object gid="70" height="128" id="992" width="128" x="512" y="640"/>
    
  <object gid="80" height="128" id="1000" width="128" x="256" y="1152"/>
   
 </objectgroup>
  
 <objectgroup id="7" name="enemies">
    
  <object gid="101" height="128" id="6" name="enemy_r1_shooter" width="128" x="5632" y="1152"/>
    
  <object gid="101" height="128" id="12" name="enemy_r3_shooter" width="128" x="11520" y="640"/>
    
  <object gid="101" height="128" id="13" name="enemy_r3_shooter" width="128" x="10240" y="1152"/>
    
  <object gid="103" height="128" id="965" width="128" x="4352" y="768"/>
    
  <object gid="103" height="128" id="966" width="128" x="3584" y="768"/>
    
  <object gid="103" height="128" id="967" width="128" x="5120" y="256"/>
    
  <object gid="104" height="128" id="968" width="128" x="4864" y="1152"/>
    
  <object gid="100" height="256" id="993" width="256" x="512" y="1152"/>
    
  <object gid="100" height="256" id="994" width="256" x="3328" y="1152"/>
    
  <object gid="104" height="128" id="996" width="128" x="8704" y="1152"/>
    
  <object gid="103" height="128" id="997" width="128" x="8448" y="512"/>
    
  <object gid="103" height="128" id="998" width="128" x="10624" y="768"/>
    
  <object gid="102" height="128" id="999" width="128" x="11776" y="1152"/>
   
 </objectgroup>
  
 <objectgroup id="6" locked="1" name="Rooms">
    
  <object height="1280" id="961" name="room0" width="3072" x="0" y="0"/>
    
  <object height="1280" id="962" name="room1" width="3072" x="3072" y="0"/>
    
  <object height="1280" id="963" name="room2" width="3072" x="6144" y="0"/>
    
  <object height="1280" id="964" name="room3" width="3072" x="9216" y="0"/>
   
 </objectgroup>
  
 <layer height="10" id="8" name="secret_hide" width="96">
    
  <data encoding="csv">
0,0,0,0,0,0,0,0,0,0,0,0,0,0,0,0,0,0,0,0,0,0,0,0,0,0,0,0,0,0,0,0,0,0,0,0,0,0,0,0,0,0,0,0,0,0,0,0,0,0,0,0,0,0,0,0,0,0,0,0,0,0,0,0,0,0,0,0,0,0,0,0,0,0,0,0,0,0,0,0,0,0,0,0,0,0,0,0,0,0,0,0,0,0,0,0,
0,0,0,0,0,0,0,0,0,0,0,0,0,0,0,0,0,0,0,0,0,0,0,0,0,0,0,0,0,0,0,0,0,0,0,0,0,0,0,0,0,0,0,0,0,0,0,0,0,0,0,0,0,0,0,0,0,0,0,0,0,0,0,0,0,0,0,0,0,0,0,0,0,0,0,0,0,0,0,0,0,0,0,0,0,0,0,0,0,0,0,0,0,0,0,0,
0,0,0,0,0,0,0,0,0,0,0,0,0,0,0,0,0,0,0,0,0,0,0,0,0,0,0,0,0,0,0,0,0,0,0,0,0,0,0,0,0,0,0,0,0,0,0,0,0,0,0,0,0,0,0,0,0,0,0,0,0,0,0,0,0,0,0,0,0,0,0,0,0,0,0,0,0,0,0,0,0,0,0,0,0,0,0,0,0,0,0,0,0,0,0,0,
0,0,0,0,0,0,0,0,0,0,0,0,0,0,0,0,0,0,0,0,0,0,0,0,0,0,0,0,0,0,0,0,0,0,0,0,0,0,0,0,0,0,0,0,0,0,0,0,0,0,0,0,0,0,0,0,0,0,0,0,0,0,0,0,0,0,0,0,0,0,0,0,0,0,0,0,0,0,0,0,0,0,0,0,0,0,0,0,0,0,0,0,0,0,0,0,
0,0,0,0,0,0,0,0,0,0,0,0,0,0,0,0,0,0,0,0,0,0,0,0,0,0,0,0,0,0,0,0,0,0,0,0,0,0,0,0,0,0,0,0,0,0,0,0,0,0,0,0,0,0,0,0,0,0,0,0,0,0,0,0,0,0,0,0,0,0,0,0,0,0,0,0,0,0,0,0,0,0,0,0,0,0,0,0,0,0,0,0,0,0,0,0,
0,0,0,0,0,0,0,0,0,0,0,0,0,0,0,0,0,0,0,0,0,0,0,0,0,0,0,0,0,0,0,0,0,0,0,0,0,0,0,0,0,0,0,0,0,0,0,0,0,0,0,0,0,0,0,0,0,0,0,0,0,0,0,0,0,0,0,0,0,0,0,0,0,0,0,0,0,0,0,0,0,0,0,0,0,0,0,0,0,0,0,0,0,0,0,0,
0,0,0,0,0,0,0,0,0,0,0,0,0,0,0,0,0,0,0,0,0,0,0,0,0,0,0,0,0,0,0,0,0,0,0,0,0,0,0,0,0,0,0,0,0,0,0,0,0,0,0,0,0,0,0,0,0,0,0,0,0,0,0,0,0,0,0,0,0,0,0,0,0,0,0,0,0,0,0,0,0,0,0,0,0,0,0,0,0,0,0,0,0,0,0,0,
0,0,0,0,0,0,0,0,0,0,0,0,0,0,0,0,0,0,0,0,0,0,0,0,0,0,0,0,0,0,0,0,0,0,0,0,0,0,0,0,0,0,0,0,0,0,0,0,0,0,0,0,0,0,0,0,0,0,0,0,0,0,0,0,0,0,0,0,0,0,0,0,0,0,0,0,0,0,0,0,0,0,0,0,0,0,0,0,0,0,0,0,0,0,0,0,
0,0,0,0,0,0,0,0,0,0,0,0,0,0,0,0,0,0,0,0,0,0,0,0,0,0,0,0,0,0,0,0,0,0,0,0,0,0,0,0,0,0,0,0,0,0,0,0,0,0,0,0,0,0,0,0,0,0,0,0,0,0,0,0,0,0,0,0,0,0,0,0,0,0,0,0,0,0,0,0,0,0,0,0,0,0,0,0,0,0,0,0,0,0,0,0,
0,0,0,0,0,0,0,0,0,0,0,0,0,0,0,0,0,0,0,0,0,0,0,0,0,0,0,0,0,0,0,0,0,0,0,0,0,0,0,0,0,0,0,0,0,0,0,0,0,0,0,0,0,0,0,0,0,0,0,0,0,0,0,0,0,0,0,0,0,0,0,0,0,0,0,0,0,0,0,0,0,0,0,0,0,0,0,0,0,0,0,0,0,0,0,0
</data>
   
 </layer>
 
</map>
