<?xml version="1.0" encoding="UTF-8" standalone="no"?>
<map height="10" infinite="0" nextlayerid="9" nextobjectid="742" orientation="orthogonal" renderorder="right-down" tiledversion="1.12.2" tileheight="128" tilewidth="128" version="1.10" width="72">
  
 <tileset firstgid="1" source="../tileset/dungeon_tiles.tsx"/>
  
 <tileset firstgid="70" source="../tileset/items.tsx"/>
  
 <tileset firstgid="101" source="../tileset/enemy.tsx"/>
  
 <tileset firstgid="108" source="../tileset/bg.tsx"/>
  
 <layer height="10" id="1" name="background" width="72">
    
  <data encoding="csv">
0,0,0,0,0,0,0,0,0,0,0,0,0,0,0,0,0,0,0,0,0,0,0,0,0,0,0,0,0,0,0,0,0,0,0,0,0,0,0,0,0,0,0,0,0,0,0,0,0,0,0,0,0,0,0,0,0,0,0,0,0,0,0,0,0,0,0,0,0,0,0,0,
0,48,0,0,0,0,0,0,47,0,48,0,0,0,0,0,0,0,0,0,0,0,47,0,0,48,0,0,0,0,0,50,45,45,48,0,0,0,0,0,0,47,49,0,0,0,47,0,0,45,48,0,0,0,0,0,0,53,0,0,0,0,0,0,53,0,0,0,0,0,47,0,
0,133,0,0,0,0,0,0,0,0,73,0,0,0,0,0,0,0,0,0,0,0,0,0,0,0,0,0,0,0,50,45,45,48,0,0,0,0,0,0,0,0,47,49,0,0,0,0,0,48,0,0,0,0,0,0,0,53,0,0,0,0,0,0,53,0,0,0,0,0,0,0,
0,0,0,0,0,0,0,0,0,0,0,0,0,0,0,0,0,0,0,0,0,0,0,0,0,0,0,0,0,0,45,45,48,0,0,0,0,0,0,0,0,0,0,47,49,0,0,0,0,0,0,0,0,0,0,0,0,53,0,0,0,0,0,0,53,0,0,0,0,0,0,0,
0,48,0,53,0,0,53,0,0,0,48,0,0,0,0,0,0,0,0,0,0,0,0,0,0,0,0,0,50,0,45,48,0,0,0,0,0,0,0,0,0,0,0,0,47,49,0,0,0,0,0,0,0,0,0,0,0,53,0,0,0,0,0,0,53,0,0,0,0,0,0,0,
0,0,0,53,0,0,53,0,50,0,0,0,0,0,0,0,0,0,0,0,0,0,0,0,0,0,0,50,0,45,48,0,47,46,46,46,46,48,0,0,0,0,0,0,0,0,0,0,0,0,0,0,0,0,0,0,0,0,0,0,0,0,0,0,0,0,0,0,0,0,50,0,
0,0,0,0,0,0,0,0,0,0,0,0,0,0,0,48,0,53,0,0,0,0,47,0,0,0,50,45,0,48,0,0,0,45,45,45,45,0,0,0,0,0,53,0,0,0,47,0,0,0,0,0,0,0,0,0,0,0,39,39,0,0,39,39,0,0,0,0,0,50,45,0,
0,0,0,53,0,0,0,0,0,53,0,0,0,0,48,0,0,53,0,0,0,0,0,0,0,50,45,0,48,0,0,0,0,45,45,45,45,0,0,0,0,0,53,0,0,0,0,47,49,0,0,0,0,0,0,0,0,0,0,0,0,0,0,0,0,0,0,0,50,45,45,0,
0,0,0,53,0,0,0,0,0,53,0,0,0,48,0,0,0,53,0,0,0,0,0,0,50,45,45,0,0,0,0,0,0,45,45,45,45,0,0,0,0,0,53,0,0,0,0,0,47,49,0,0,0,0,0,0,0,0,0,0,0,0,0,0,0,0,53,50,45,45,45,0,
0,0,0,0,0,0,0,0,0,0,0,0,0,0,0,0,0,0,0,0,0,0,0,0,0,0,0,0,0,0,0,0,0,0,0,0,0,0,0,0,0,0,0,0,0,0,0,0,0,0,0,0,0,0,0,0,0,0,0,0,0,0,0,0,0,0,0,0,0,0,0,0
</data>
   
 </layer>
  
 <layer height="10" id="2" name="collision" width="72">
    
  <data encoding="csv">
2,2,2,2,2,2,2,2,2,2,2,2,2,2,2,2,2,2,2,2,2,2,2,2,2,2,2,2,2,2,2,2,2,2,2,2,2,2,2,2,2,2,2,2,2,2,2,2,2,2,2,2,2,2,2,2,2,2,2,2,2,2,2,2,2,2,2,2,2,2,2,2,
2,0,0,0,0,0,0,0,0,4,0,0,0,0,0,0,0,0,0,0,0,0,0,2,2,0,0,0,0,0,0,0,0,0,0,0,0,0,0,0,0,0,0,0,0,0,0,2,2,0,0,0,0,0,0,0,0,0,0,0,0,0,0,0,0,0,0,0,0,0,0,2,
2,0,0,0,0,0,0,0,0,2,0,0,0,0,0,0,0,0,15,15,15,0,0,2,2,0,0,0,0,0,0,0,0,0,0,0,0,0,0,0,0,0,0,0,0,0,0,2,2,0,0,0,0,0,0,0,0,0,0,0,0,0,0,0,0,0,0,0,0,0,0,2,
2,61,61,3,5,60,60,0,0,4,2,2,2,0,0,0,0,0,0,0,0,0,0,2,2,0,0,0,0,2,0,0,0,0,0,0,0,0,0,0,0,0,0,0,0,0,0,2,2,0,0,0,0,0,0,0,0,0,0,0,0,0,0,0,0,0,0,0,0,0,0,2,
2,0,0,0,0,0,0,0,0,2,0,0,0,0,0,0,0,0,0,0,0,0,0,2,2,0,0,0,0,5,0,0,4,4,60,61,61,4,0,0,0,0,0,0,0,0,0,2,2,0,0,0,0,0,0,0,0,0,0,0,0,0,0,0,0,0,0,0,0,0,0,2,
2,0,0,0,62,0,0,0,0,3,0,0,0,0,0,2,2,2,0,0,0,2,2,2,2,0,0,0,61,0,0,0,0,0,0,0,0,0,0,0,0,2,3,5,5,1,1,2,2,0,0,0,0,0,0,0,0,4,0,0,0,0,0,0,3,0,0,0,0,0,0,2,
2,0,0,3,3,3,2,3,3,3,0,0,0,0,2,0,0,0,0,0,0,0,0,2,2,0,0,0,5,0,0,0,0,0,0,0,0,0,0,0,0,0,0,0,0,0,0,2,2,0,0,0,0,0,0,0,2,2,33,33,2,2,33,33,5,2,0,0,0,0,0,2,
2,0,0,0,0,0,0,0,0,0,0,0,0,2,0,0,0,0,0,0,0,0,0,0,0,0,0,61,0,0,0,0,0,0,0,0,0,0,0,0,0,0,0,0,0,0,0,0,0,0,0,0,0,0,0,0,2,61,3,4,3,3,3,3,4,5,3,0,0,0,0,2,
2,0,0,0,62,0,0,62,0,0,0,0,2,0,0,0,0,33,33,0,0,0,0,0,0,0,0,3,0,0,0,0,0,0,0,0,0,0,0,0,0,0,0,0,0,0,0,0,0,0,0,0,0,0,0,3,3,60,61,3,60,61,61,5,4,0,0,0,0,0,0,2,
2,2,2,2,2,2,2,2,2,2,2,2,2,2,2,2,2,2,2,2,2,2,2,2,2,2,2,2,2,2,2,2,2,2,2,2,2,2,2,2,2,2,2,2,2,2,2,2,2,2,2,2,2,2,2,2,2,2,2,2,2,2,2,2,2,2,2,2,2,2,2,2
</data>
   
 </layer>
  
 <layer height="10" id="5" name="decoration" width="72">
    
  <data encoding="csv">
0,0,0,0,0,0,0,0,0,0,0,0,0,0,0,0,0,0,0,0,0,0,0,0,0,0,0,0,0,0,0,0,0,0,0,0,0,0,0,0,0,0,0,0,0,0,0,0,0,0,0,0,0,0,0,0,0,0,0,0,0,0,0,0,0,0,0,0,0,0,0,0,
0,0,0,0,0,0,0,0,0,130,0,0,0,0,0,0,0,0,0,0,0,0,0,0,0,0,0,0,0,0,0,0,0,0,0,0,0,0,0,0,0,0,0,0,0,0,0,0,0,0,0,0,0,0,0,0,0,0,0,0,0,0,0,0,0,0,0,0,0,0,0,0,
0,0,0,0,0,0,0,0,0,0,0,0,0,0,0,0,0,0,0,0,0,0,0,0,0,0,0,0,0,0,0,0,0,0,0,0,0,0,0,0,0,0,0,0,0,0,0,0,0,0,0,0,0,0,0,0,0,0,0,0,0,0,0,0,0,0,0,0,0,0,0,0,
0,0,0,0,0,0,0,0,0,0,0,0,0,0,0,0,0,0,0,0,0,0,0,0,0,0,0,0,0,0,0,0,0,0,0,0,0,0,0,0,0,0,0,0,0,0,0,0,0,0,0,0,0,0,0,0,0,0,0,0,0,0,0,0,0,0,0,0,0,0,0,0,
0,0,0,0,0,0,0,0,0,90,0,0,0,0,0,0,0,0,0,0,0,0,0,90,0,0,0,0,0,0,0,0,0,0,0,0,0,0,0,0,0,0,0,0,0,0,0,0,0,0,0,0,0,0,0,0,0,0,0,0,0,0,0,0,0,0,0,0,0,0,0,0,
0,0,0,0,0,0,138,0,0,0,0,0,0,0,0,0,0,0,0,0,0,0,0,0,0,0,0,0,0,0,0,0,0,0,125,0,0,0,0,0,0,0,0,0,0,0,0,90,0,0,0,0,0,0,0,0,0,0,0,0,0,0,0,0,0,0,0,0,0,0,0,0,
0,0,0,0,0,0,0,0,0,0,0,0,0,0,0,0,0,0,0,0,0,0,0,0,0,0,0,0,90,0,0,0,0,0,0,0,0,0,0,0,0,0,0,0,0,0,0,0,0,0,0,0,0,0,0,0,0,0,0,0,0,0,0,0,0,0,0,0,0,0,0,0,
0,0,0,0,0,0,0,0,0,0,0,0,0,0,0,0,0,0,0,0,0,0,0,53,0,0,0,0,0,0,0,0,0,0,0,0,0,0,0,0,0,0,0,0,0,0,0,53,0,0,0,0,0,0,0,0,0,0,9,8,0,0,9,8,0,0,0,0,0,0,0,0,
0,0,0,0,0,0,0,0,0,0,0,0,0,0,0,0,0,0,0,0,0,0,0,53,0,0,0,0,0,0,0,0,0,0,0,0,0,0,0,0,0,0,0,0,0,0,0,53,0,0,0,0,0,0,0,0,0,0,0,0,0,0,0,0,0,0,0,0,0,133,0,0,
0,0,0,0,0,0,0,0,0,0,0,0,0,0,0,0,0,0,0,0,0,0,0,0,0,0,0,0,0,0,0,0,0,0,0,0,0,0,0,0,0,0,0,0,0,0,0,0,0,0,0,0,0,0,0,0,0,0,0,0,0,0,0,0,0,0,0,0,0,0,0,0
</data>
   
 </layer>
  
 <objectgroup id="3" name="objects">
    
  <object height="128" id="1" name="playerStart" type="playerStart" width="128" x="149.455" y="251.274"/>
    
  <object height="152" id="14" name="exitGate" type="exitGate" width="140" x="8847.64" y="1000">
      
   <properties>
        
    <property name="nextLevel" value="maps/world2/level_06.tmx"/>
       
   </properties>
     
  </object>
    
  <object gid="82" height="128" id="16" name="coin_platform_r1" width="128" x="4100.61" y="515.758"/>
    
  <object gid="82" height="128" id="726" width="128" x="1408" y="384"/>
    
  <object gid="82" height="128" id="727" width="128" x="1280" y="384"/>
    
  <object gid="82" height="128" id="728" width="128" x="1536" y="384"/>
    
  <object gid="82" height="128" id="729" width="128" x="2176" y="640"/>
    
  <object gid="82" height="128" id="730" width="128" x="2048" y="640"/>
    
  <object gid="82" height="128" id="731" width="128" x="1920" y="640"/>
    
  <object gid="82" height="128" id="732" width="128" x="2688" y="640"/>
    
  <object gid="82" height="128" id="733" width="128" x="2816" y="640"/>
    
  <object gid="82" height="128" id="734" width="128" x="1024" y="768"/>
    
  <object gid="82" height="128" id="735" width="128" x="768" y="1152"/>
    
  <object gid="82" height="128" id="736" width="128" x="1024" y="1152"/>
    
  <object gid="83" height="128" id="737" width="128" x="2432" y="256"/>
    
  <object gid="73" height="128" id="738" width="128" x="5888" y="640"/>
    
  <object gid="73" height="128" id="740" width="128" x="8320" y="1152"/>
    
  <object gid="73" height="128" id="741" width="128" x="7808" y="768"/>
   
 </objectgroup>
  
 <objectgroup id="7" name="enemies">
    
  <object gid="108" height="128" id="2" name="enemy_r0_walker" width="128" x="1675.88" y="1152"/>
    
  <object gid="105" height="128" id="6" name="enemy_r1_shooter" width="128" x="5759.39" y="642.909"/>
    
  <object gid="108" height="128" id="9" name="enemy_r2_walker" width="128" x="6656" y="1152"/>
    
  <object gid="108" height="128" id="10" name="enemy_r2_walker" width="128" x="5381.82" y="1148.97"/>
    
  <object gid="108" height="128" id="724" width="128" x="2966.3" y="1160.97"/>
    
  <object gid="108" height="128" id="725" width="128" x="4372.36" y="515.515"/>
   
 </objectgroup>
  
 <objectgroup id="6" name="Rooms">
    
  <object height="1280" id="721" name="room0" width="3072" x="0" y="0"/>
    
  <object height="1280" id="722" name="room1" width="3072" x="3072" y="0"/>
    
  <object height="1280" id="723" name="room2" width="3072" x="6144" y="0"/>
   
 </objectgroup>
  
 <layer height="10" id="8" name="secret_hide" width="72">
    
  <data encoding="csv">
0,0,0,0,0,0,0,0,0,0,0,0,0,0,0,0,0,0,0,0,0,0,0,0,0,0,0,0,0,0,0,0,0,0,0,0,0,0,0,0,0,0,0,0,0,0,0,0,0,0,0,0,0,0,0,0,0,0,0,0,0,0,0,0,0,0,0,0,0,0,0,0,
0,0,0,0,0,0,0,0,0,0,0,0,0,0,0,0,0,0,0,0,0,0,0,0,0,0,0,0,0,0,0,0,0,0,0,0,0,0,0,0,0,0,0,0,0,0,0,0,0,0,0,0,0,0,0,0,0,0,0,0,0,0,0,0,0,0,0,0,0,0,0,0,
0,0,0,0,0,0,0,0,0,0,0,0,0,0,0,0,0,0,0,0,0,0,0,0,0,0,0,0,0,0,0,0,0,0,0,0,0,0,0,0,0,0,0,0,0,0,0,0,0,0,0,0,0,0,0,0,0,0,0,0,0,0,0,0,0,0,0,0,0,0,0,0,
0,0,0,0,0,0,0,0,0,0,0,0,0,0,0,0,0,0,0,0,0,0,0,0,0,0,0,0,0,0,0,0,0,0,0,0,0,0,0,0,0,0,0,0,0,0,0,0,0,0,0,0,0,0,0,0,0,0,0,0,0,0,0,0,0,0,0,0,0,0,0,0,
0,0,0,0,0,0,0,0,0,0,0,0,0,0,0,0,0,0,0,0,0,0,0,0,0,0,0,0,0,0,0,0,0,0,0,0,0,0,0,0,0,0,0,0,0,0,0,0,0,0,0,0,0,0,0,0,0,0,0,0,0,0,0,0,0,0,0,0,0,0,0,0,
0,0,0,0,0,0,0,0,0,0,0,0,0,0,0,0,0,0,0,0,0,0,0,0,0,0,0,0,0,0,0,0,0,0,0,0,0,0,0,0,0,0,0,0,0,0,0,0,0,0,0,0,0,0,0,0,0,0,0,0,0,0,0,0,0,0,0,0,0,0,0,0,
0,0,0,0,0,0,0,0,0,0,0,0,0,0,0,0,0,0,0,0,0,0,0,0,0,0,0,0,0,0,0,0,0,0,0,0,0,0,0,0,0,0,0,0,0,0,0,0,0,0,0,0,0,0,0,0,0,0,0,0,0,0,0,0,0,0,0,0,0,0,0,0,
0,0,0,0,0,0,0,0,0,0,0,0,0,0,0,0,0,0,0,0,0,0,0,0,0,0,0,0,0,0,0,0,0,0,0,0,0,0,0,0,0,0,0,0,0,0,0,0,0,0,0,0,0,0,0,0,0,0,0,0,0,0,0,0,0,0,0,0,0,0,0,0,
0,0,0,0,0,0,0,0,0,0,0,0,0,0,0,0,0,0,0,0,0,0,0,0,0,0,0,0,0,0,0,0,0,0,0,0,0,0,0,0,0,0,0,0,0,0,0,0,0,0,0,0,0,0,0,0,0,0,0,0,0,0,0,0,0,0,0,0,0,0,0,0,
0,0,0,0,0,0,0,0,0,0,0,0,0,0,0,0,0,0,0,0,0,0,0,0,0,0,0,0,0,0,0,0,0,0,0,0,0,0,0,0,0,0,0,0,0,0,0,0,0,0,0,0,0,0,0,0,0,0,0,0,0,0,0,0,0,0,0,0,0,0,0,0
</data>
   
 </layer>
 
</map>
