<?xml version="1.0" encoding="UTF-8"?>
<map version="1.10" tiledversion="1.12.2" orientation="orthogonal" renderorder="right-down" width="50" height="12" tilewidth="16" tileheight="16" infinite="0" nextlayerid="5" nextobjectid="16">
 <tileset firstgid="1" name="brick_bg" tilewidth="16" tileheight="16" tilecount="1" columns="1">
  <image source="../gfx/brick_bg.png" width="16" height="16"/>
 </tileset>
 <tileset firstgid="2" name="collision_tile" tilewidth="16" tileheight="16" tilecount="1" columns="1">
  <image source="../gfx/tile.png" width="16" height="16"/>
  <tile id="0">
   <properties>
    <property name="solid" type="bool" value="true"/>
   </properties>
  </tile>
 </tileset>
 <tileset firstgid="3" name="passage_tile" tilewidth="16" tileheight="16" tilecount="1" columns="1">
  <image source="../gfx/passage.png" width="16" height="16"/>
  <tile id="0">
   <properties>
    <property name="solid" type="bool" value="false"/>
   </properties>
  </tile>
 </tileset>
 <layer id="1" name="background" width="50" height="12">
  <data encoding="csv">
1,1,1,1,1,1,1,1,1,1,1,1,1,1,1,1,1,1,1,1,1,1,1,1,1,1,1,1,1,1,1,1,1,1,1,1,1,1,1,1,1,1,1,1,1,1,1,1,1,1,
1,1,1,1,1,1,1,1,1,1,1,1,1,1,1,1,1,1,1,1,1,1,1,1,1,1,1,1,1,1,1,1,1,1,1,1,1,1,1,1,1,1,1,1,1,1,1,1,1,1,
1,1,1,1,1,1,1,1,1,1,1,1,1,1,1,1,1,1,1,1,1,1,1,1,1,1,1,1,1,1,1,1,1,1,1,1,1,1,1,1,1,1,1,1,1,1,1,1,1,1,
1,1,1,1,1,1,1,1,1,1,1,1,1,1,1,1,1,1,1,1,1,1,1,1,1,1,1,1,1,1,1,1,1,1,1,1,1,1,1,1,1,1,1,1,1,1,1,1,1,1,
1,1,1,1,1,1,1,1,1,1,1,1,1,1,1,1,1,1,1,1,1,1,1,1,1,1,1,1,1,1,1,1,1,1,1,1,1,1,1,1,1,1,1,1,1,1,1,1,1,1,
1,1,1,1,1,1,1,1,1,1,1,1,1,1,1,1,1,1,1,1,1,1,1,1,1,1,1,1,1,1,1,1,1,1,1,1,1,1,1,1,1,1,1,1,1,1,1,1,1,1,
1,1,1,1,1,1,1,1,1,1,1,1,1,1,1,1,1,1,1,1,1,1,1,1,1,1,1,1,1,1,1,1,1,1,1,1,1,1,1,1,1,1,1,1,1,1,1,1,1,1,
1,1,1,1,1,1,1,1,1,1,1,1,1,1,1,1,1,1,1,1,1,1,1,1,1,1,1,1,1,1,1,1,1,1,1,1,1,1,1,1,1,1,1,1,1,1,1,1,1,1,
1,1,1,1,1,1,1,1,1,1,1,1,1,1,1,1,1,1,1,1,1,1,1,1,1,1,1,1,1,1,1,1,1,1,1,1,1,1,1,1,1,1,1,1,1,1,1,1,1,1,
1,1,1,1,1,1,1,1,1,1,1,1,1,1,1,1,1,1,1,1,1,1,1,1,1,1,1,1,1,1,1,1,1,1,1,1,1,1,1,1,1,1,1,1,1,1,1,1,1,1,
1,1,1,1,1,1,1,1,1,1,1,1,1,1,1,1,1,1,1,1,1,1,1,1,1,1,1,1,1,1,1,1,1,1,1,1,1,1,1,1,1,1,1,1,1,1,1,1,1,1,
1,1,1,1,1,1,1,1,1,1,1,1,1,1,1,1,1,1,1,1,1,1,1,1,1,1,1,1,1,1,1,1,1,1,1,1,1,1,1,1,1,1,1,1,1,1,1,1,1,1
</data>
 </layer>
 <layer id="2" name="collision" width="50" height="12">
  <data encoding="csv">
2,2,2,2,2,2,2,2,2,2,2,2,2,2,2,2,2,2,2,2,2,2,2,2,2,2,2,2,2,2,2,2,2,2,2,2,2,2,2,2,2,2,2,2,2,2,2,2,2,2,
2,0,0,0,0,0,0,0,0,0,0,0,0,0,0,0,0,0,0,0,0,0,0,0,0,0,0,0,0,2,2,0,0,0,0,0,0,0,0,2,2,0,0,0,0,0,0,0,0,2,
2,0,0,0,0,0,0,0,0,0,0,0,0,0,0,0,0,0,0,0,0,0,0,0,0,0,0,0,0,2,2,0,0,0,0,0,0,0,0,2,2,0,0,0,0,0,0,0,0,2,
2,0,0,0,0,0,0,0,0,0,0,0,0,0,0,0,0,0,0,0,0,0,0,0,0,0,0,0,0,2,2,0,0,0,0,0,0,0,0,2,2,0,0,0,0,0,0,0,0,2,
2,0,0,0,0,0,0,0,0,0,0,0,0,0,0,0,0,0,0,0,0,0,0,0,0,0,0,0,0,3,3,0,0,0,0,0,0,0,0,3,3,0,0,0,0,0,0,0,0,2,
2,0,0,0,0,0,0,0,0,0,0,0,0,0,0,0,0,0,0,0,0,0,0,0,0,0,0,0,0,3,3,0,0,0,0,0,0,0,0,3,3,0,0,0,0,0,0,0,0,2,
2,0,0,0,0,0,0,0,0,0,0,0,0,0,0,0,0,0,0,0,0,0,0,0,0,0,0,0,0,2,2,0,0,0,0,0,0,0,0,2,2,0,0,0,0,0,0,0,0,2,
2,2,2,2,2,2,0,0,0,0,0,0,0,0,0,0,0,0,0,0,0,0,0,0,0,0,0,0,0,2,2,2,2,2,2,2,2,2,2,2,2,2,2,2,2,3,3,2,2,2,
2,0,0,0,0,0,0,0,0,0,0,0,0,0,0,0,0,0,0,0,0,0,0,0,0,0,2,2,2,2,0,0,0,0,0,0,0,0,0,0,0,0,0,0,0,0,0,0,0,2,
2,0,0,0,0,0,0,0,0,0,0,0,0,0,0,0,0,0,0,0,0,0,0,0,0,0,0,0,0,2,0,0,0,0,0,0,0,0,0,0,0,0,0,0,0,0,0,0,0,2,
2,0,0,0,0,0,0,0,0,0,0,0,0,0,0,0,0,0,0,0,0,0,0,0,0,0,0,0,0,2,0,0,0,0,0,0,0,0,0,0,0,0,0,0,0,0,0,0,0,2,
2,2,2,2,2,2,2,2,2,2,2,2,2,2,2,2,2,2,2,2,2,2,2,2,2,2,2,2,2,2,2,2,2,2,2,2,2,2,2,2,2,2,2,2,2,2,2,2,2,2
</data>
 </layer>
 <objectgroup id="3" name="objects">
  <object id="1" name="playerStart" type="playerStart" x="16" y="160" width="16" height="16"/>
  <object id="2" name="enemy_r0" type="enemy" x="336" y="160" width="16" height="16">
   <properties>
    <property name="enemyType" value="shooter"/>
   </properties>
  </object>
  <object id="3" name="enemy_r0" type="enemy" x="64" y="160" width="16" height="16"/>
  <object id="4" name="chest_r0" type="chest" x="16" y="160" width="16" height="16"/>
  <object id="5" name="coin_r1" type="coin" x="592" y="164" width="8" height="8"/>
  <object id="6" name="dagger_r1" type="dagger" x="528" y="160" width="16" height="16"/>
  <object id="7" name="dagger_r1" type="dagger" x="608" y="160" width="16" height="16"/>
  <object id="8" name="enemy_r2" type="enemy" x="720" y="160" width="16" height="16">
   <properties>
    <property name="enemyType" value="shooter"/>
   </properties>
  </object>
  <object id="9" name="enemy_r2" type="enemy" x="752" y="160" width="16" height="16">
   <properties>
    <property name="enemyType" value="flyer"/>
   </properties>
  </object>
  <object id="10" name="chest_r2" type="chest" x="656" y="160" width="16" height="16"/>
  <object id="11" name="coin_r2" type="coin" x="704" y="164" width="8" height="8"/>
 </objectgroup>
 <objectgroup id="4" name="Rooms">
  <object id="12" name="room0_large" x="0" y="0" width="480" height="192"/>
  <object id="13" name="room1_small" x="480" y="64" width="160" height="128"/>
  <object id="14" name="room2_small" x="640" y="64" width="160" height="128"/>
  <object id="15" name="playerStart" type="playerStart" x="48" y="80" width="16" height="16"/>
 </objectgroup>
</map>
