<?xml version="1.0" encoding="UTF-8"?>
<map version="1.10" tiledversion="1.11.2" orientation="orthogonal" renderorder="right-down" width="32" height="17" tilewidth="128" tileheight="128" infinite="0" nextlayerid="7" nextobjectid="41">
 <tileset firstgid="1" source="../tileset/dungeon_tiles.tsx"/>
 <tileset firstgid="70" source="../tileset/bg.tsx"/>
 <tileset firstgid="117" source="../tileset/items.tsx"/>
 <tileset firstgid="148" source="../tileset/hazards.tsx"/>
 <tileset firstgid="159" source="../tileset/enemy.tsx"/>
 <layer id="1" name="background" width="32" height="17">
  <data encoding="csv">
0,0,0,0,0,0,0,0,0,0,0,0,0,0,0,0,0,0,0,0,0,0,0,0,0,0,0,0,0,0,0,0,
0,48,0,47,45,49,0,0,0,0,0,0,0,0,47,0,0,0,0,47,45,45,45,45,45,45,48,0,0,0,47,0,
0,0,0,0,47,45,49,0,0,0,0,0,0,0,0,0,0,0,0,0,47,45,45,45,45,48,0,0,0,0,0,0,
0,0,0,0,0,47,45,49,0,0,0,0,0,0,0,0,0,0,0,0,0,47,45,45,48,0,0,0,0,0,0,0,
0,0,0,0,0,0,47,45,49,0,0,0,0,0,0,0,0,0,0,0,0,0,45,45,0,0,0,0,0,0,0,0,
0,0,0,0,0,0,0,47,45,49,0,0,0,0,0,0,0,0,0,0,0,0,45,45,0,0,0,0,0,0,0,0,
0,0,0,0,0,0,0,0,47,45,49,0,0,0,0,0,0,0,0,0,0,0,45,45,0,0,0,0,0,0,0,0,
0,0,0,0,0,0,0,0,0,47,45,49,0,0,50,0,0,0,0,0,0,0,45,45,0,0,0,96,0,0,50,0,
0,0,0,0,0,0,0,0,0,0,0,0,0,0,0,0,0,0,0,0,0,0,45,45,0,0,0,0,0,0,0,0,
0,0,0,0,0,0,0,0,0,47,45,45,45,45,45,45,48,0,0,47,45,48,45,45,0,18,0,0,50,48,0,0,
0,0,0,0,0,0,0,0,0,0,45,45,45,45,45,45,0,0,0,0,0,0,45,45,0,18,0,50,48,0,50,0,
0,48,0,0,0,0,0,0,0,0,45,45,45,45,45,0,0,0,0,0,0,0,0,45,45,0,0,0,0,0,0,0,
0,0,0,0,0,0,0,0,0,0,45,45,45,45,45,0,0,6,6,6,6,6,45,45,48,0,0,0,0,0,47,0,
0,0,0,0,0,0,0,47,45,48,45,45,45,45,45,0,0,7,7,7,6,6,45,45,0,0,0,0,0,0,0,0,
0,0,0,0,0,0,0,0,45,0,45,45,45,45,45,0,0,6,6,6,6,6,45,45,0,0,0,0,0,0,0,0,
0,0,31,0,0,0,0,0,45,0,45,45,0,0,0,0,0,6,6,6,7,6,45,45,0,0,0,0,0,0,29,0,
0,0,0,0,0,0,0,0,0,0,0,0,0,0,0,0,0,0,0,0,0,0,0,0,0,0,0,0,0,0,0,0
</data>
 </layer>
 <layer id="2" name="collision" width="32" height="17">
  <data encoding="csv">
2,2,2,2,2,2,2,2,2,2,2,2,2,2,2,2,2,2,2,2,2,2,2,2,2,2,2,2,2,2,2,2,
2,0,0,0,0,0,0,0,0,0,0,0,0,0,0,2,2,0,0,0,0,0,0,0,0,0,0,0,0,0,0,2,
2,0,0,0,0,0,0,0,0,0,0,0,0,0,0,2,2,0,0,0,0,0,0,0,0,0,0,0,0,0,0,2,
2,0,0,0,0,0,0,0,0,0,0,0,0,0,0,14,14,0,0,0,0,0,0,0,0,0,0,0,0,0,0,2,
2,28,28,2,2,0,0,0,0,0,0,0,0,0,0,2,2,0,0,0,0,0,0,0,0,0,0,0,0,0,0,2,
2,0,0,0,0,0,0,0,0,0,0,2,2,2,0,2,2,2,2,2,2,2,2,2,2,2,2,2,1,1,2,2,
2,0,0,0,0,0,0,0,0,0,0,0,0,0,0,2,2,0,0,0,0,0,0,0,0,2,0,0,0,0,0,2,
2,0,0,0,0,0,0,0,0,0,0,0,0,0,0,2,2,0,0,0,0,0,0,0,0,2,0,0,0,0,0,2,
2,0,0,0,0,0,0,0,0,2,2,2,4,2,2,2,2,15,15,2,2,2,0,0,0,2,2,3,1,1,2,2,
2,0,0,0,0,0,0,0,0,0,0,0,51,0,0,0,0,0,0,0,0,0,0,0,0,0,0,0,0,0,0,2,
2,2,2,2,2,0,0,0,0,0,0,0,0,0,0,0,0,0,0,0,0,0,0,0,0,0,62,0,0,0,0,2,
2,0,0,0,0,0,0,0,0,0,0,0,0,0,0,2,2,2,2,2,44,2,2,15,15,2,2,2,2,2,2,2,
2,0,0,0,0,0,0,2,2,2,0,0,0,0,0,2,2,0,0,0,51,0,14,0,0,0,0,0,0,0,0,2,
44,0,0,0,0,0,0,0,0,0,0,0,0,0,0,2,2,0,0,0,0,0,14,0,0,0,0,0,0,0,0,2,
2,0,0,0,0,0,0,0,0,0,0,0,62,62,62,2,3,0,0,0,0,0,62,62,0,0,0,0,0,0,0,2,
2,0,0,0,0,0,0,0,33,0,0,0,2,2,2,2,2,0,0,0,0,0,2,2,62,64,0,0,0,0,0,2,
2,2,2,2,2,2,2,2,2,2,2,2,2,4,2,2,2,2,2,2,2,2,2,2,2,2,2,2,2,2,2,2
</data>
 </layer>
 <layer id="5" name="Decoration" width="32" height="17">
  <data encoding="csv">
0,0,0,0,0,0,0,0,0,0,0,0,0,0,0,0,0,0,0,0,0,0,0,0,0,0,0,0,0,0,0,0,
0,0,0,0,0,0,0,0,0,0,0,0,0,0,0,0,0,78,0,0,0,0,0,0,0,0,0,0,92,0,0,0,
0,0,0,0,0,0,0,0,0,0,0,0,0,0,0,0,0,0,0,0,0,0,0,0,0,0,0,0,0,0,0,0,
0,0,0,0,0,0,0,0,0,0,0,0,0,0,0,85,0,0,0,0,0,0,0,0,0,0,0,0,0,0,0,0,
0,0,0,0,0,0,0,0,0,0,0,0,0,0,0,0,0,0,0,0,0,0,0,0,0,0,0,0,0,0,0,0,
0,0,0,110,0,0,0,0,0,0,0,0,0,0,0,0,0,0,0,0,0,0,0,0,0,0,0,0,0,0,0,0,
0,0,0,0,0,0,0,0,0,0,0,0,0,0,0,0,0,0,0,0,0,0,0,0,0,0,0,0,0,0,0,0,
0,0,0,0,0,0,0,0,0,0,0,0,0,0,0,0,0,0,0,0,0,0,0,0,0,0,0,0,0,0,0,0,
0,0,0,0,0,0,0,0,0,0,0,0,0,0,0,0,0,0,0,0,0,0,0,0,0,0,0,0,0,0,0,0,
0,0,95,0,0,0,0,0,0,0,0,0,0,0,0,0,0,0,0,0,0,0,0,0,0,0,0,0,87,0,0,0,
0,0,0,0,0,0,0,0,0,0,0,0,0,0,0,0,0,0,0,0,0,0,0,0,0,0,0,0,0,0,0,0,
0,0,87,0,0,0,0,0,0,0,0,0,0,0,0,0,0,0,0,0,0,0,0,0,0,0,0,0,0,0,0,0,
0,0,0,0,0,0,0,0,0,0,0,0,0,0,0,0,0,0,0,0,0,0,0,0,0,0,0,0,0,79,0,0,
0,0,0,0,0,0,0,0,0,0,0,0,0,0,0,0,0,0,0,0,0,0,0,0,0,0,0,0,0,0,0,0,
0,0,0,0,0,0,0,0,0,0,0,0,0,0,0,0,0,0,0,0,0,0,0,0,0,0,0,0,0,0,0,0,
0,0,0,0,0,0,0,0,0,0,0,0,0,0,0,0,0,0,0,0,0,0,0,0,0,0,0,0,0,95,0,0,
0,0,0,0,0,0,0,0,0,0,0,0,0,0,0,0,0,0,0,0,0,0,0,0,0,0,0,0,0,0,0,0
</data>
 </layer>
 <objectgroup id="3" name="objects">
  <object id="3" name="playerStart" type="playerStart" x="256" y="1152" width="128" height="128"/>
  <object id="15" name="exitGate" type="exitGate" x="3712" y="1920" width="140" height="152">
   <properties>
    <property name="nextLevel" value="maps/world3/level3_05.tmx"/>
   </properties>
  </object>
  <object id="16" name="torchLeft" type="torch" x="3968" y="640" width="128" height="128"/>
  <object id="17" gid="137" x="1920" y="896" width="128" height="156"/>
  <object id="18" gid="137" x="0" y="1152" width="128" height="156"/>
  <object id="19" gid="137" x="1920" y="1792" width="128" height="156"/>
  <object id="20" gid="137" x="3968" y="1792" width="128" height="156"/>
  <object id="22" gid="150" x="896" y="512" width="128" height="128">
   <properties>
    <property name="amplitudeX" value="0"/>
   </properties>
  </object>
  <object id="23" gid="166" x="2432" y="640" width="128" height="128"/>
  <object id="24" gid="166" x="3456" y="640" width="128" height="128"/>
  <object id="25" gid="122" x="3328" y="1024" width="128" height="128"/>
  <object id="27" gid="130" x="128" y="512" width="128" height="128"/>
  <object id="28" gid="166" x="2432" y="2048" width="128" height="104"/>
  <object id="29" gid="166" x="2304" y="1024" width="128" height="104"/>
  <object id="30" gid="166" x="1408" y="1024" width="128" height="104"/>
  <object id="31" gid="166" x="1536" y="640" width="128" height="104"/>
  <object id="32" gid="166" x="384" y="512" width="128" height="104"/>
  <object id="33" gid="166" x="640" y="2048" width="128" height="104"/>
  <object id="34" gid="166" x="384" y="2048" width="128" height="104"/>
  <object id="35" gid="166" x="3840" y="1024" width="128" height="104"/>
  <object id="37" gid="120" x="2176" y="2048" width="128" height="128"/>
  <object id="38" gid="120" x="2304" y="2048" width="128" height="128"/>
  <object id="39" gid="120" x="2688" y="2048" width="128" height="128"/>
  <object id="40" gid="137" x="2432" y="1792" width="128" height="156"/>
 </objectgroup>
 <objectgroup id="6" name="enemies"/>
 <objectgroup id="4" name="Rooms" locked="1">
  <object id="2" x="0" y="0" width="2048" height="2176"/>
  <object id="5" x="2048" y="0" width="2048" height="2176"/>
 </objectgroup>
</map>
