<?xml version="1.0" encoding="UTF-8"?>
<map version="1.10" tiledversion="1.11.2" orientation="orthogonal" renderorder="right-down" width="60" height="10" tilewidth="128" tileheight="128" infinite="0" nextlayerid="9" nextobjectid="638">
 <tileset firstgid="1" source="../tileset/dungeon_tiles.tsx"/>
 <tileset firstgid="70" source="../tileset/items.tsx"/>
 <tileset firstgid="101" source="../tileset/enemy.tsx"/>
 <tileset firstgid="110" source="../tileset/bg.tsx"/>
 <tileset firstgid="157" source="../tileset/hazards.tsx"/>
 <layer id="1" name="background" width="60" height="10">
  <data encoding="csv">
0,0,0,0,0,0,0,0,0,0,0,0,0,0,0,0,0,0,0,0,0,0,0,0,0,0,0,0,0,0,0,0,0,0,0,0,0,0,0,0,0,0,0,0,0,0,0,0,0,0,0,0,0,0,0,0,0,0,0,0,
0,6,6,6,6,6,9,8,6,0,0,0,0,0,0,6,6,6,6,6,6,0,0,0,0,0,0,0,0,0,0,6,6,6,6,6,6,6,0,0,0,0,0,0,0,0,0,0,0,6,6,6,6,6,6,6,6,6,6,0,
0,6,6,6,6,9,0,0,8,0,0,0,0,0,0,6,6,6,6,6,6,0,0,0,0,0,0,0,0,0,0,0,0,0,0,0,0,0,0,0,0,0,0,0,0,0,0,0,0,6,6,9,8,6,6,6,6,6,6,0,
0,6,6,6,6,0,0,0,0,6,6,6,6,6,6,9,0,0,0,0,8,6,6,6,6,6,6,0,0,0,0,8,6,6,6,6,6,9,0,0,0,0,0,0,0,0,0,0,0,6,9,0,0,8,6,6,0,0,0,0,
0,0,0,0,0,0,0,0,0,6,6,6,6,6,6,0,0,0,0,0,0,6,6,6,6,6,6,0,0,0,0,0,6,6,6,6,6,0,0,0,0,0,0,0,0,0,0,0,0,9,0,0,0,0,8,6,6,6,6,0,
0,7,7,7,7,0,0,0,0,0,0,0,0,0,0,0,0,0,0,0,0,0,0,0,0,0,0,0,0,0,0,0,6,6,6,6,6,0,0,0,0,0,0,0,0,0,0,0,0,0,0,0,0,0,0,0,6,6,6,0,
0,7,7,7,7,0,0,0,0,47,46,46,46,46,48,0,0,0,0,0,0,8,6,6,6,6,9,0,0,0,0,0,0,0,0,0,0,0,0,0,0,0,0,0,0,0,0,0,0,8,6,6,6,6,9,8,0,6,6,0,
0,7,7,7,7,0,0,0,0,0,45,45,45,45,0,0,0,0,0,0,0,0,6,6,6,6,0,0,0,0,0,0,6,6,6,7,6,0,0,0,0,0,0,0,0,0,0,0,0,0,6,6,6,6,0,0,0,6,6,0,
0,7,7,7,7,0,0,0,0,0,45,45,45,45,0,0,0,0,0,0,0,0,6,6,6,6,0,0,0,0,0,0,8,7,6,6,9,0,0,0,0,0,0,0,0,0,0,0,0,0,6,6,6,6,0,0,0,6,6,0,
0,0,0,0,0,0,0,0,0,0,45,45,45,45,0,0,0,0,0,0,0,0,6,6,6,6,0,0,0,0,0,0,0,0,0,0,0,0,0,0,0,0,0,0,0,0,0,0,0,0,6,6,6,6,0,0,0,0,0,0
</data>
 </layer>
 <layer id="2" name="collision" width="60" height="10">
  <data encoding="csv">
2,2,2,2,2,2,2,2,2,2,2,2,2,2,2,2,2,2,2,2,2,2,2,2,2,2,2,2,2,2,2,2,2,2,2,2,2,2,2,2,2,2,2,2,2,2,2,2,2,2,2,2,2,2,2,2,2,2,2,2,
2,0,0,0,0,0,0,0,0,2,2,2,2,2,2,0,0,51,51,0,0,2,2,2,2,2,2,0,0,0,0,0,0,0,0,0,0,0,0,0,0,51,0,51,0,51,0,51,51,0,0,0,0,0,0,0,0,0,0,2,
2,0,0,0,0,0,0,0,0,2,2,2,2,2,2,0,0,0,0,0,0,2,2,2,2,2,2,0,0,0,0,3,3,3,3,3,3,3,164,164,0,0,0,0,0,0,0,0,0,0,0,0,0,0,0,0,0,0,0,2,
2,0,0,0,0,0,0,0,0,0,0,0,0,0,0,0,0,0,0,0,0,0,0,0,0,0,0,0,0,0,0,0,0,0,0,0,0,0,0,0,164,164,164,0,0,0,0,0,0,0,0,0,0,0,0,0,2,2,2,2,
2,2,2,2,2,0,0,0,0,0,0,0,0,0,0,0,0,0,0,0,0,0,0,0,0,0,0,0,0,0,0,0,0,0,0,0,0,0,0,0,0,0,0,164,164,164,164,164,164,0,0,0,0,0,0,0,0,51,51,2,
2,0,0,0,0,0,0,0,0,3,4,2,3,4,2,0,0,0,0,0,0,4,3,2,5,2,3,0,0,0,164,0,0,0,0,0,0,0,0,0,0,0,0,0,0,0,0,0,0,3,3,2,5,2,3,3,0,0,0,2,
2,0,0,0,0,0,0,0,0,132,0,0,0,0,132,0,0,0,0,0,0,132,0,51,51,0,132,0,0,0,0,0,2,5,3,4,2,0,0,0,0,0,0,0,0,0,0,0,0,132,0,51,51,0,132,0,2,2,2,2,
2,0,0,0,0,0,0,0,0,0,0,0,0,0,0,0,0,0,0,0,0,0,0,0,0,0,0,0,0,0,0,0,0,0,0,0,0,0,0,0,0,0,0,0,0,0,0,0,0,0,0,0,0,0,0,0,2,0,0,2,
2,0,0,0,0,0,0,0,0,0,0,0,0,0,0,0,0,0,0,0,0,0,0,0,0,0,0,0,0,0,0,0,0,0,0,0,0,0,0,0,0,0,0,0,0,0,0,0,0,0,62,0,0,0,0,0,14,0,0,2,
2,2,2,2,2,2,2,2,2,2,2,2,2,2,2,2,2,2,2,2,2,2,2,2,2,2,2,2,2,2,2,2,2,3,3,3,2,2,2,2,2,2,2,2,2,2,2,2,2,2,2,2,2,2,2,2,2,2,2,2
</data>
 </layer>
 <layer id="5" name="decoration" width="60" height="10">
  <data encoding="csv">
0,0,0,0,0,0,0,0,0,0,0,0,0,0,0,0,0,0,0,0,0,0,0,0,0,0,0,0,0,0,0,0,0,0,0,0,0,0,0,0,0,0,0,0,0,0,0,0,0,0,0,0,0,0,0,0,0,0,0,0,
0,0,0,0,0,0,0,0,0,0,0,0,0,0,0,0,0,0,0,0,0,0,0,0,0,0,0,0,0,0,0,0,0,0,0,0,32,0,0,0,0,0,0,0,0,0,0,0,0,119,0,0,0,150,0,0,0,0,0,0,
0,0,0,0,0,0,0,0,0,0,90,0,0,90,0,0,0,0,0,0,0,0,90,0,0,90,0,0,0,0,0,153,0,0,0,0,0,153,0,0,0,0,0,0,0,0,0,0,0,0,0,0,0,0,0,0,0,135,0,0,
0,0,156,0,0,0,0,0,0,0,0,0,0,0,0,0,0,0,0,0,0,0,0,0,0,0,0,0,0,0,0,0,0,0,0,0,0,0,0,0,0,0,0,0,0,0,0,0,0,0,0,0,0,0,0,0,152,0,0,0,
0,0,0,0,0,0,0,0,0,0,0,0,0,0,0,0,0,0,0,0,0,0,0,0,0,0,0,0,0,0,0,0,0,0,90,0,0,0,0,0,0,0,0,0,0,0,0,0,0,0,0,0,32,0,0,0,0,0,0,0,
0,0,0,0,0,0,0,0,0,0,0,0,0,0,0,0,0,0,0,0,0,0,0,0,0,0,0,0,0,0,0,0,0,0,0,0,0,0,0,0,0,0,0,0,0,0,0,0,0,0,0,0,0,0,0,0,0,0,0,0,
0,0,0,0,0,0,0,0,0,0,0,127,0,0,0,0,0,0,0,0,0,0,0,0,0,0,0,0,0,0,0,0,154,0,0,0,154,0,0,0,0,0,0,0,0,0,0,0,0,0,0,0,0,0,0,0,0,0,0,0,
0,0,90,0,0,0,0,0,0,0,0,0,0,0,0,0,0,0,0,0,0,0,0,0,0,0,0,0,0,0,0,0,0,0,0,0,0,0,0,0,0,0,0,0,0,0,0,0,0,0,0,0,0,0,0,0,0,0,0,0,
0,0,0,0,0,0,0,0,0,0,0,0,0,0,0,0,0,0,0,0,0,0,0,0,0,0,0,0,0,0,0,0,0,0,0,0,0,0,0,0,0,0,0,0,0,0,0,0,0,0,0,0,0,0,0,0,0,0,0,0,
0,0,0,0,0,0,0,0,0,0,0,0,0,0,0,0,0,0,0,0,0,0,0,0,0,0,0,0,0,0,0,0,0,0,0,0,0,0,0,0,0,0,0,0,0,0,0,0,0,0,0,0,0,0,0,0,0,0,0,0
</data>
 </layer>
 <objectgroup id="3" name="objects">
  <object id="602" name="playerStart" type="playerStart" x="256" y="384" width="128" height="128"/>
  <object id="603" name="exitGate" type="exitGate" x="7296" y="256" width="128" height="128">
   <properties>
    <property name="nextLevel" value="maps/world3/level3_04.tmx"/>
   </properties>
  </object>
  <object id="610" gid="82" x="128" y="1152" width="128" height="128"/>
  <object id="611" gid="82" x="256" y="1152" width="128" height="128"/>
  <object id="612" gid="82" x="384" y="1152" width="128" height="128"/>
  <object id="613" gid="82" x="512" y="1152" width="128" height="128"/>
  <object id="614" gid="82" x="1408" y="1152" width="128" height="128"/>
  <object id="615" gid="82" x="1536" y="1152" width="128" height="128"/>
  <object id="616" gid="82" x="2944" y="1152" width="128" height="128"/>
  <object id="617" gid="82" x="3072" y="1152" width="128" height="128"/>
  <object id="618" gid="82" x="4352" y="1152" width="128" height="128"/>
  <object id="619" gid="82" x="4480" y="1152" width="128" height="128"/>
  <object id="637" gid="75" x="7424" y="1152" width="128" height="128">
   <properties>
    <property name="potionType" propertytype="Potion" value="jump"/>
   </properties>
  </object>
 </objectgroup>
 <objectgroup id="7" name="enemies">
  <object id="620" gid="108" x="6528" y="640" width="128" height="104"/>
  <object id="621" gid="108" x="6784" y="640" width="128" height="104"/>
  <object id="622" gid="108" x="5760" y="512" width="128" height="104"/>
  <object id="623" gid="108" x="4480" y="768" width="128" height="104"/>
  <object id="624" gid="108" x="4224" y="768" width="128" height="104"/>
  <object id="625" gid="108" x="3200" y="640" width="128" height="104"/>
  <object id="626" gid="108" x="2688" y="640" width="128" height="104"/>
  <object id="627" gid="108" x="1536" y="640" width="128" height="104"/>
  <object id="628" gid="108" x="1280" y="640" width="128" height="104"/>
  <object id="629" gid="108" x="640" y="1152" width="128" height="104"/>
  <object id="630" gid="108" x="768" y="1152" width="128" height="104"/>
  <object id="631" gid="108" x="2176" y="1152" width="128" height="104"/>
  <object id="632" gid="108" x="2432" y="1152" width="128" height="104"/>
  <object id="633" gid="108" x="3712" y="1152" width="128" height="104"/>
  <object id="634" gid="108" x="5376" y="1152" width="128" height="104"/>
  <object id="635" gid="108" x="6144" y="1152" width="128" height="104"/>
  <object id="636" gid="106" x="6400" y="640" width="128" height="128"/>
 </objectgroup>
 <objectgroup id="6" name="Rooms" locked="1">
  <object id="601" name="room0" x="0" y="0" width="7680" height="1280"/>
 </objectgroup>
 <layer id="8" name="secret_hide" width="60" height="10">
  <data encoding="csv">
0,0,0,0,0,0,0,0,0,0,0,0,0,0,0,0,0,0,0,0,0,0,0,0,0,0,0,0,0,0,0,0,0,0,0,0,0,0,0,0,0,0,0,0,0,0,0,0,0,0,0,0,0,0,0,0,0,0,0,0,
0,0,0,0,0,0,0,0,0,0,0,0,0,0,0,0,0,0,0,0,0,0,0,0,0,0,0,0,0,0,0,0,0,0,0,0,0,0,0,0,0,0,0,0,0,0,0,0,0,0,0,0,0,0,0,0,0,0,0,0,
0,0,0,0,0,0,0,0,0,0,0,0,0,0,0,0,0,0,0,0,0,0,0,0,0,0,0,0,0,0,0,0,0,0,0,0,0,0,0,0,0,0,0,0,0,0,0,0,0,0,0,0,0,0,0,0,0,0,0,0,
0,0,0,0,0,0,0,0,0,0,0,0,0,0,0,0,0,0,0,0,0,0,0,0,0,0,0,0,0,0,0,0,0,0,0,0,0,0,0,0,0,0,0,0,0,0,0,0,0,0,0,0,0,0,0,0,0,0,0,0,
0,0,0,0,0,0,0,0,0,0,0,0,0,0,0,0,0,0,0,0,0,0,0,0,0,0,0,0,0,0,0,0,0,0,0,0,0,0,0,0,0,0,0,0,0,0,0,0,0,0,0,0,0,0,0,0,0,0,0,0,
0,0,0,0,0,0,0,0,0,0,0,0,0,0,0,0,0,0,0,0,0,0,0,0,0,0,0,0,0,0,0,0,0,0,0,0,0,0,0,0,0,0,0,0,0,0,0,0,0,0,0,0,0,0,0,0,0,0,0,0,
0,0,0,0,0,0,0,0,0,0,0,0,0,0,0,0,0,0,0,0,0,0,0,0,0,0,0,0,0,0,0,0,0,0,0,0,0,0,0,0,0,0,0,0,0,0,0,0,0,0,0,0,0,0,0,0,0,0,0,0,
0,0,0,0,0,0,0,0,0,0,0,0,0,0,0,0,0,0,0,0,0,0,0,0,0,0,0,0,0,0,0,0,0,0,0,0,0,0,0,0,0,0,0,0,0,0,0,0,0,0,0,0,0,0,0,0,0,0,0,0,
0,0,0,0,0,0,0,0,0,0,0,0,0,0,0,0,0,0,0,0,0,0,0,0,0,0,0,0,0,0,0,0,0,0,0,0,0,0,0,0,0,0,0,0,0,0,0,0,0,0,0,0,0,0,0,0,0,0,0,0,
0,0,0,0,0,0,0,0,0,0,0,0,0,0,0,0,0,0,0,0,0,0,0,0,0,0,0,0,0,0,0,0,0,0,0,0,0,0,0,0,0,0,0,0,0,0,0,0,0,0,0,0,0,0,0,0,0,0,0,0
</data>
 </layer>
</map>
