<?xml version="1.0" encoding="UTF-8"?>
<map version="1.10" tiledversion="1.12.2" orientation="orthogonal" renderorder="right-down" width="50" height="12" tilewidth="64" tileheight="64" infinite="0" nextlayerid="6" nextobjectid="32">
 <tileset firstgid="1" name="brick_bg" tilewidth="16" tileheight="16" tilecount="1" columns="1">
  <image source="../../gfx/brick_bg.png" width="16" height="16"/>
 </tileset>
 <tileset firstgid="2" name="collision_tile" tilewidth="16" tileheight="16" tilecount="1" columns="1">
  <image source="../../gfx/tile.png" width="16" height="16"/>
  <tile id="0">
   <properties>
    <property name="solid" type="bool" value="true"/>
   </properties>
  </tile>
 </tileset>
 <tileset firstgid="3" name="passage_tile" tilewidth="16" tileheight="16" tilecount="1" columns="1">
  <image source="../../gfx/passage.png" width="16" height="16"/>
  <tile id="0">
   <properties>
    <property name="solid" type="bool" value="false"/>
   </properties>
  </tile>
 </tileset>
 <tileset firstgid="4" source="../origin_tiles_forest.tsx"/>
 <layer id="1" name="background" width="50" height="12">
  <data encoding="csv">
0,0,0,0,0,0,0,0,0,0,0,0,0,0,0,0,0,0,0,0,0,0,0,0,0,0,0,0,0,0,0,0,0,0,0,0,0,0,0,0,0,0,0,0,0,0,0,0,0,0,
0,0,0,0,0,0,0,0,0,0,0,0,0,0,0,0,0,0,0,0,0,0,0,0,0,0,0,0,0,0,0,0,0,0,0,0,0,0,0,0,0,0,0,0,0,0,0,0,0,0,
0,0,0,0,0,0,0,0,0,0,0,0,0,0,0,0,0,0,0,0,0,0,0,0,0,0,0,0,0,0,0,0,0,0,0,0,0,0,0,0,0,0,0,0,0,0,0,0,0,0,
0,0,0,0,0,0,0,0,0,0,0,0,0,0,0,0,0,0,0,0,0,0,0,0,0,0,0,0,0,0,0,0,0,0,0,0,0,0,0,0,0,0,0,0,0,0,0,0,0,0,
0,0,0,0,0,0,0,0,0,0,0,0,0,0,0,0,0,0,0,0,0,0,0,0,0,0,0,0,0,0,0,0,0,0,0,0,0,0,0,0,0,0,0,0,0,0,0,0,0,0,
0,0,0,0,0,0,0,0,0,0,0,0,0,0,0,0,0,0,0,0,0,0,0,0,0,0,0,0,0,0,0,0,0,0,0,0,0,0,0,0,0,0,0,0,0,0,0,0,0,0,
0,0,0,0,0,0,0,0,0,0,0,0,0,0,0,0,0,0,0,0,0,0,0,0,0,0,0,0,0,0,0,0,0,0,0,0,0,0,0,0,0,0,0,0,0,0,0,0,0,0,
0,0,0,0,0,0,0,0,0,0,0,0,0,0,0,0,0,0,0,0,0,0,0,0,0,0,0,0,0,0,0,0,0,0,0,0,0,0,0,0,0,0,0,0,0,0,0,0,0,0,
0,0,0,0,0,0,0,0,0,0,0,0,0,0,0,0,0,0,0,0,0,0,0,0,0,0,0,0,0,0,0,0,0,0,0,0,0,0,0,0,0,0,0,0,0,0,0,0,0,0,
0,0,0,0,0,0,0,0,0,0,0,0,0,0,0,0,0,0,0,0,0,0,0,0,0,0,0,0,0,0,0,0,0,0,0,0,0,0,0,0,0,0,0,0,0,0,0,0,0,0,
0,0,0,0,0,0,0,0,0,0,0,0,0,0,0,0,0,0,0,0,0,0,0,0,0,0,0,0,0,0,0,0,0,0,0,0,0,0,0,0,0,0,0,0,0,0,0,0,0,0,
0,0,0,0,0,0,0,0,0,0,0,0,0,0,0,0,0,0,0,0,0,0,0,0,0,0,0,0,0,0,0,0,0,0,0,0,0,0,0,0,0,0,0,0,0,0,0,0,0,0
</data>
 </layer>
 <layer id="2" name="collision" width="50" height="12">
  <data encoding="csv">
8,11,11,11,11,11,11,11,11,11,11,11,11,11,11,11,11,11,11,11,11,11,11,11,11,11,11,11,11,8,8,11,11,11,11,11,11,11,11,11,8,8,11,11,11,11,11,11,11,8,
9,0,0,0,0,0,0,0,0,0,0,0,0,0,0,0,0,0,0,0,0,0,0,0,0,0,0,0,0,7,9,0,0,0,0,0,0,0,0,0,7,9,0,0,0,0,0,0,0,7,
9,0,0,0,0,0,0,0,0,0,0,0,0,0,0,0,0,0,0,0,0,0,0,0,0,0,0,0,0,7,9,0,0,0,0,0,0,0,0,0,7,9,0,0,0,0,0,0,0,7,
9,0,0,0,0,0,0,0,0,0,0,0,0,0,0,0,0,0,0,0,0,0,0,0,0,0,0,0,0,10,12,0,0,0,0,0,0,0,0,0,10,12,0,0,0,0,0,0,0,7,
9,0,0,0,0,0,0,0,0,0,0,0,0,0,0,0,0,0,0,0,0,0,0,0,0,0,0,0,0,0,0,0,0,0,0,0,0,0,0,0,0,0,0,0,0,0,0,0,0,7,
9,0,0,0,0,0,0,0,0,0,0,0,0,0,0,0,0,0,0,0,0,0,0,0,0,0,0,0,0,0,0,0,0,0,0,0,0,0,0,0,0,0,0,0,0,0,0,0,0,7,
9,0,0,0,0,0,0,0,0,0,0,0,0,0,0,0,0,0,0,0,0,0,0,0,0,0,0,0,0,4,5,29,29,29,29,21,0,0,25,29,5,6,0,0,0,0,0,0,0,7,
9,0,0,0,0,0,0,0,0,0,0,0,0,0,0,0,0,0,0,0,0,0,0,0,0,0,0,0,0,7,9,0,0,0,0,0,0,0,0,0,7,9,0,0,0,0,0,0,0,7,
9,0,0,0,0,0,0,0,0,0,0,0,0,0,0,0,0,0,0,0,0,0,0,0,0,0,0,0,0,7,9,0,0,0,0,0,0,0,0,0,7,9,0,0,0,0,0,0,0,7,
9,0,0,0,0,0,0,0,0,0,0,0,0,0,0,0,0,0,0,0,0,0,0,0,0,0,0,0,0,7,9,0,0,0,0,0,0,0,0,0,7,9,0,0,0,0,0,0,0,7,
9,0,0,0,0,0,0,0,0,0,0,0,0,0,0,0,0,0,0,0,0,0,0,0,0,0,0,0,0,7,9,0,0,0,0,0,0,0,0,0,7,9,0,0,0,0,0,0,0,7,
14,5,5,5,5,5,5,5,5,5,5,5,5,5,5,5,5,5,5,5,5,5,5,5,5,5,5,5,5,16,15,33,33,33,33,33,33,33,33,33,16,15,5,5,5,5,5,5,5,16
</data>
 </layer>
 <objectgroup id="5" name="collsision">
  <object id="24" x="1865.25" y="390.678" width="421.186" height="22.8814"/>
  <object id="25" x="2253.39" y="405.085" width="9.32203" height="0.847458"/>
  <object id="26" x="1864.61" y="195.688">
   <polygon points="0,0 54.0928,54.0928 112.163,0 112.163,-144.778 3.97741,-143.982"/>
  </object>
  <object id="28" x="4.80192" y="720.288" width="3195.68" height="40.8163"/>
  <object id="29" x="2.40096" y="7.20288" width="50.4202" height="703.481"/>
  <object id="30" x="67.2269" y="9.60384" width="3128.45" height="38.4154"/>
 </objectgroup>
 <objectgroup id="3" name="objects">
  <object id="1" name="playerStart" type="playerStart" x="184.452" y="624.387" width="16" height="16"/>
  <object id="2" name="enemy_r0" type="enemy" x="2459.21" y="659.276" width="16" height="16">
   <properties>
    <property name="enemyType" value="shooter"/>
   </properties>
  </object>
  <object id="3" name="enemy_r0" type="enemy" x="1245.06" y="669.268" width="16" height="16"/>
  <object id="4" name="chest_r0" type="chest" x="599.317" y="663.805" width="16" height="16"/>
  <object id="5" name="coin_r1" type="coin" x="1967.32" y="359.512" width="8" height="8"/>
  <object id="6" name="dagger_r1" type="dagger" x="808.323" y="652.097" width="16" height="16"/>
  <object id="7" name="dagger_r1" type="dagger" x="1895.06" y="356.29" width="16" height="16"/>
  <object id="8" name="enemy_r2" type="enemy" x="2778.98" y="654.923" width="16" height="16">
   <properties>
    <property name="enemyType" value="shooter"/>
   </properties>
  </object>
  <object id="9" name="enemy_r2" type="enemy" x="2346.54" y="194.341" width="16" height="16">
   <properties>
    <property name="enemyType" value="flyer"/>
   </properties>
  </object>
  <object id="10" name="chest_r2" type="chest" x="2067.41" y="668.78" width="37.9512" height="33.0732"/>
  <object id="11" name="coin_r2" type="coin" x="2095.32" y="359.512" width="8" height="8"/>
 </objectgroup>
 <objectgroup id="4" name="Rooms" locked="1">
  <object id="15" name="room_small_2" x="2624" y="64" width="576" height="704"/>
  <object id="16" x="2880" y="192"/>
  <object id="17" name="room_small_1" x="1920" y="0" width="704" height="768"/>
  <object id="20" name="room_large" x="0" y="0" width="1920" height="768"/>
 </objectgroup>
</map>
