<?xml version="1.0" encoding="UTF-8" standalone="no"?>
<map height="17" infinite="0" nextlayerid="8" nextobjectid="38" orientation="orthogonal" renderorder="right-down" tiledversion="1.12.2" tileheight="128" tilewidth="128" version="1.10" width="32">
  
 <tileset firstgid="1" source="../tileset/dungeon_tiles.tsx"/>
  
 <tileset firstgid="70" source="../tileset/enemy.tsx"/>
  
 <tileset firstgid="77" source="../tileset/secret_wall.tsx"/>
  
 <tileset columns="1" firstgid="78" name="secret_room_wall" tilecount="1" tileheight="128" tilewidth="128">
    
  <tile id="0">
      
   <properties>
        
    <property name="secret" type="bool" value="true"/>
        
    <property name="secretRoom" value="secret_room"/>
       
   </properties>
      
   <image height="128" source="../gfx/tiles/secret_wall.png" width="128"/>
     
  </tile>
   
 </tileset>
  
 <tileset firstgid="79" source="../tileset/bg.tsx"/>
  
 <tileset firstgid="126" source="../tileset/items.tsx"/>
  
 <tileset firstgid="157" source="../tileset/hazards.tsx"/>
  
 <layer height="17" id="1" name="background" width="32">
    
  <data encoding="csv">
0,0,0,0,0,0,0,0,0,0,0,0,0,0,0,0,0,0,0,0,0,0,0,0,0,0,0,0,0,0,0,0,
0,48,0,47,45,49,0,0,0,0,0,0,0,0,0,0,0,0,0,47,45,45,45,45,45,45,48,0,0,0,47,0,
0,0,0,0,47,45,49,0,0,0,0,0,0,0,0,0,0,0,0,0,47,45,45,45,45,48,0,0,0,0,0,0,
0,0,0,0,0,47,45,49,0,0,0,0,0,0,0,0,0,0,0,0,0,47,45,45,48,0,0,0,0,0,0,0,
0,0,0,0,0,0,47,45,49,0,0,0,0,0,0,0,0,0,0,0,0,0,45,45,0,0,0,0,0,0,0,0,
0,0,0,18,101,0,0,47,45,49,0,0,0,0,0,0,0,0,0,0,0,0,45,45,0,0,0,0,0,0,0,0,
0,11,10,18,0,0,0,0,47,45,49,0,0,0,0,0,0,0,0,0,0,0,45,45,0,0,0,0,0,0,0,0,
0,6,6,18,0,0,0,0,0,47,45,49,0,0,50,0,0,0,0,0,0,0,45,45,0,0,0,0,0,0,50,0,
0,6,6,18,0,0,0,0,0,0,0,0,0,0,0,0,0,0,0,0,0,0,45,45,0,0,0,0,0,0,0,0,
0,6,6,18,0,0,0,0,0,47,45,45,45,45,45,45,48,0,0,47,45,101,45,45,0,0,0,0,50,48,0,0,
0,0,0,0,0,0,0,0,0,0,45,45,45,45,45,45,0,0,0,0,0,0,45,45,0,0,0,50,48,0,50,0,
0,48,0,0,18,0,0,0,0,0,45,45,45,45,45,0,0,0,0,0,0,0,0,45,45,0,0,0,0,0,0,0,
0,0,0,0,18,0,0,0,0,0,45,45,45,45,45,0,0,45,45,45,45,45,0,45,48,0,0,0,0,101,47,0,
0,0,0,0,18,0,0,47,45,48,45,45,45,45,45,0,0,45,45,45,45,45,0,45,0,0,0,0,0,0,0,0,
0,0,0,0,18,0,0,0,0,0,45,45,45,45,45,0,0,45,45,45,45,45,45,45,0,0,0,0,0,0,0,0,
0,0,32,0,18,0,0,0,0,0,45,45,0,0,0,0,0,45,45,45,45,45,45,45,0,0,0,0,0,104,29,0,
0,0,0,0,0,0,0,0,0,0,0,0,0,0,0,0,0,0,0,0,0,0,0,0,0,0,0,0,0,0,0,0
</data>
   
 </layer>
  
 <layer height="17" id="2" name="collision" width="32">
    
  <data encoding="csv">
2,2,2,2,2,2,2,2,2,2,2,2,2,2,2,2,2,2,2,2,2,2,2,2,2,2,2,2,2,2,2,2,
2,0,0,0,0,0,0,0,0,0,0,0,0,0,0,78,78,0,0,0,0,0,0,0,0,0,0,0,0,0,0,2,
2,0,0,0,0,0,0,0,0,0,0,0,0,0,0,0,0,0,0,0,0,0,0,0,0,0,0,0,0,0,0,2,
2,0,0,0,0,0,0,0,0,0,0,0,0,0,0,2,2,0,0,0,0,0,0,0,0,0,0,0,0,0,0,2,
2,3,3,3,3,0,0,0,0,0,0,0,0,0,0,2,2,0,0,0,0,0,0,0,0,0,0,0,0,0,0,2,
2,0,0,0,0,0,0,0,0,0,0,2,2,2,0,2,2,0,0,0,0,0,0,0,0,0,0,0,0,0,0,2,
2,0,0,0,0,0,0,0,0,0,0,0,0,0,0,2,2,0,0,0,0,0,0,0,0,0,0,0,0,0,0,2,
2,0,0,0,0,0,0,0,0,0,0,0,0,0,0,2,2,0,0,0,0,0,0,0,0,0,0,0,0,0,0,2,
2,0,0,0,0,0,0,0,0,2,2,2,44,2,2,2,2,15,15,2,2,2,0,0,0,0,0,0,0,2,2,2,
2,0,0,0,0,0,0,0,0,0,0,0,0,0,0,0,0,0,0,0,0,0,0,0,0,0,0,0,0,0,0,2,
2,2,2,2,2,0,0,0,0,0,0,0,0,0,0,0,0,0,0,0,0,0,0,0,0,0,0,0,0,0,0,2,
2,0,0,0,0,0,0,0,0,0,0,0,0,0,0,2,2,2,2,2,44,2,2,15,15,2,2,2,2,2,2,2,
2,0,0,0,0,0,0,2,2,2,0,0,0,0,0,2,2,0,0,0,0,0,14,0,0,0,0,0,0,0,0,2,
44,0,0,0,0,0,0,0,0,0,0,0,0,0,67,2,2,0,0,0,0,0,14,0,0,0,0,0,0,0,0,2,
2,0,0,0,0,0,0,0,0,0,0,0,0,67,67,2,44,0,0,0,0,0,67,67,0,0,0,0,0,0,0,2,
2,0,0,0,0,0,0,0,33,0,0,0,2,2,2,2,2,0,0,0,0,0,2,2,67,67,0,0,0,0,0,2,
2,2,2,2,2,2,2,2,2,2,2,2,2,44,2,2,2,2,2,2,2,2,2,2,2,2,2,2,2,2,2,2
</data>
   
 </layer>
  
 <layer height="17" id="5" name="Decoration" width="32">
    
  <data encoding="csv">
0,0,0,0,0,0,0,0,0,0,0,0,0,0,0,0,0,0,0,0,0,0,0,0,0,0,0,0,0,0,0,0,
0,0,0,0,0,0,0,0,0,0,0,0,0,0,0,0,0,0,0,0,0,0,0,0,0,0,0,0,0,0,0,0,
0,0,0,0,0,0,0,0,0,0,0,0,0,0,0,0,0,0,0,0,0,0,0,0,0,0,0,0,0,0,0,0,
0,0,0,0,0,0,0,0,0,0,0,0,0,0,0,15,15,0,0,0,0,0,0,0,0,0,0,0,0,0,0,0,
0,0,0,0,0,0,0,0,0,0,0,0,0,0,0,0,0,0,0,0,0,0,0,0,0,0,0,0,0,0,0,0,
0,0,0,0,0,0,0,0,0,0,0,0,0,0,0,0,0,0,0,0,0,0,0,0,0,0,0,0,0,0,0,0,
0,0,0,0,0,0,0,0,0,0,0,0,0,0,0,0,0,0,0,0,0,0,0,0,0,0,0,0,0,0,0,0,
0,0,146,0,0,0,0,0,0,0,0,0,0,0,0,0,0,0,0,0,0,0,0,0,0,0,0,0,0,0,0,0,
0,0,0,0,0,0,0,0,0,0,0,0,146,0,0,0,0,0,0,0,0,0,0,0,0,0,0,0,0,0,0,0,
0,104,0,0,0,0,0,0,0,0,0,0,0,0,0,0,0,0,0,0,0,0,0,0,0,0,0,0,0,0,0,0,
0,0,0,0,0,0,0,0,0,0,0,0,0,0,0,0,0,0,0,0,0,0,0,0,0,0,0,0,0,0,0,0,
0,0,0,0,0,0,0,0,0,0,0,0,0,0,0,0,0,0,0,0,0,0,0,0,0,0,0,0,0,0,0,0,
0,0,0,0,0,0,0,0,0,0,0,0,0,0,0,0,0,0,0,0,0,0,0,0,0,0,0,0,0,0,0,0,
0,0,0,0,0,0,0,0,0,0,0,0,0,0,0,0,0,0,0,0,0,0,0,0,0,0,0,0,0,0,0,0,
0,0,0,0,0,0,0,0,0,0,0,0,0,0,0,0,0,0,0,0,0,0,0,0,0,0,0,0,0,0,0,0,
0,0,0,0,0,0,0,0,0,0,0,0,0,0,0,0,0,0,0,0,0,0,0,0,0,0,0,0,0,0,0,0,
0,0,0,0,0,0,0,0,0,0,0,0,0,0,0,0,0,0,0,0,0,0,0,0,0,0,0,0,0,0,0,0
</data>
   
 </layer>
  
 <objectgroup id="3" name="objects">
    
  <object height="128" id="3" name="playerStart" type="playerStart" width="128" x="128" y="1152"/>
    
  <object height="128" id="15" name="exitGate" type="exitGate" width="128" x="3712" y="1920">
      
   <properties>
        
    <property name="nextLevel" value="maps/world1/level_10.tmx"/>
       
   </properties>
     
  </object>
    
  <object height="128" id="16" name="torchLeft" type="torch" width="128" x="3968" y="640"/>
    
  <object gid="77" height="128" id="17" width="128" x="2464" y="1408"/>
    
  <object gid="77" height="128" id="18" width="128" x="1536" y="640"/>
    
  <object gid="77" height="128" id="19" width="128" x="3744" y="1024"/>
    
  <object gid="77" height="128" id="20" width="128" x="1280" y="2048"/>
    
  <object height="128" id="27" name="chest_secret_room" type="chest" width="128" x="2176" y="1920">
      
   <properties>
        
    <property name="secretRoom" value="secret_room"/>
       
   </properties>
     
  </object>
    
  <object height="128" id="28" name="coin_secret_room" type="coin" width="128" x="2432" y="1920">
      
   <properties>
        
    <property name="secretRoom" value="secret_room"/>
       
   </properties>
     
  </object>
    
  <object height="128" id="29" name="coin_secret_room" type="coin" width="128" x="2688" y="1920">
      
   <properties>
        
    <property name="secretRoom" value="secret_room"/>
       
   </properties>
     
  </object>
    
  <object gid="139" height="128" id="32" width="128" x="128" y="512"/>
    
  <object gid="159" height="128" id="33" width="128" x="896" y="640">
      
   <properties>
        
    <property name="amplitudeY" type="float" value="1"/>
       
   </properties>
     
  </object>
    
  <object gid="129" height="128" id="34" width="128" x="2176" y="2048">
      
   <properties>
        
    <property name="secretRoom" value="secret_room"/>
       
   </properties>
     
  </object>
    
  <object gid="129" height="128" id="35" width="128" x="2304" y="2048">
      
   <properties>
        
    <property name="secretRoom" value="secret_room"/>
       
   </properties>
     
  </object>
    
  <object gid="129" height="128" id="36" width="128" x="2432" y="2048">
      
   <properties>
        
    <property name="secretRoom" value="secret_room"/>
       
   </properties>
     
  </object>
    
  <object gid="138" height="128" id="37" width="128" x="2560" y="2048">
      
   <properties>
        
    <property name="secretRoom" value="secret_room"/>
       
   </properties>
     
  </object>
   
 </objectgroup>
  
 <objectgroup id="7" name="enemies"/>
  
 <objectgroup id="4" name="Rooms">
    
  <object height="2176" id="2" width="2048" x="0" y="0"/>
    
  <object height="2176" id="5" width="2048" x="2048" y="0"/>
    
  <object height="768" id="22" name="secret_room" width="896" x="2048" y="1408"/>
   
 </objectgroup>
  
 <layer height="17" id="6" name="secret_hide" width="32">
    
  <data encoding="csv">
0,0,0,0,0,0,0,0,0,0,0,0,0,0,0,0,0,0,0,0,0,0,0,0,0,0,0,0,0,0,0,0,
0,0,0,0,0,0,0,0,0,0,0,0,0,0,0,0,0,0,0,0,0,0,0,0,0,0,0,0,0,0,0,0,
0,0,0,0,0,0,0,0,0,0,0,0,0,0,0,0,0,0,0,0,0,0,0,0,0,0,0,0,0,0,0,0,
0,0,0,0,0,0,0,0,0,0,0,0,0,0,0,0,0,0,0,0,0,0,0,0,0,0,0,0,0,0,0,0,
0,0,0,0,0,0,0,0,0,0,0,0,0,0,0,0,0,0,0,0,0,0,0,0,0,0,0,0,0,0,0,0,
0,0,0,0,0,0,0,0,0,0,0,0,0,0,0,0,0,0,0,0,0,0,0,0,0,0,0,0,0,0,0,0,
0,0,0,0,0,0,0,0,0,0,0,0,0,0,0,0,0,0,0,0,0,0,0,0,0,0,0,0,0,0,0,0,
0,0,0,0,0,0,0,0,0,0,0,0,0,0,0,0,0,0,0,0,0,0,0,0,0,0,0,0,0,0,0,0,
0,0,0,0,0,0,0,0,0,0,0,0,0,0,0,0,0,0,0,0,0,0,0,0,0,0,0,0,0,0,0,0,
0,0,0,0,0,0,0,0,0,0,0,0,0,0,0,0,0,0,0,0,0,0,0,0,0,0,0,0,0,0,0,0,
0,0,0,0,0,0,0,0,0,0,0,0,0,0,0,0,0,0,0,0,0,0,0,0,0,0,0,0,0,0,0,0,
0,0,0,0,0,0,0,0,0,0,0,0,0,0,0,0,0,0,0,0,0,0,0,0,0,0,0,0,0,0,0,0,
0,0,0,0,0,0,0,0,0,0,0,0,0,0,0,0,0,3,2,4,3,5,0,0,0,0,0,0,0,0,0,0,
0,0,0,0,0,0,0,0,0,0,0,0,0,0,0,0,0,5,2,5,2,2,0,0,0,0,0,0,0,0,0,0,
0,0,0,0,0,0,0,0,0,0,0,0,0,0,0,0,0,4,3,2,2,3,0,0,0,0,0,0,0,0,0,0,
0,0,0,0,0,0,0,0,0,0,0,0,0,0,0,0,0,5,3,3,2,2,0,0,0,0,0,0,0,0,0,0,
0,0,0,0,0,0,0,0,0,0,0,0,0,0,0,0,0,0,0,0,0,0,0,0,0,0,0,0,0,0,0,0
</data>
   
 </layer>
 
</map>
