<?xml version="1.0" encoding="UTF-8"?>
<map version="1.10" tiledversion="1.11.2" orientation="orthogonal" renderorder="right-down" width="32" height="17" tilewidth="128" tileheight="128" infinite="0" nextlayerid="8" nextobjectid="64">
 <tileset firstgid="1" source="../tileset/items.tsx"/>
 <tileset firstgid="32" source="../tileset/enemy.tsx"/>
 <tileset firstgid="41" source="../tileset/dungeon_tiles.tsx"/>
 <tileset firstgid="110" source="../tileset/bg.tsx"/>
 <layer id="1" name="background" width="32" height="17">
  <data encoding="csv">
0,0,0,0,0,0,0,0,0,0,0,0,0,0,0,0,0,0,0,0,0,0,0,0,0,0,0,0,0,0,0,0,
0,85,85,88,0,0,0,0,0,0,0,0,0,87,85,0,0,85,88,0,0,0,0,0,0,0,0,0,0,87,85,0,
0,85,88,0,0,0,0,0,0,0,0,0,0,0,87,0,0,88,0,0,0,0,0,0,0,0,0,0,0,0,87,0,
0,88,0,0,0,0,0,0,0,0,0,0,0,0,0,125,0,0,0,0,0,0,0,0,0,0,0,0,0,0,0,0,
0,86,88,0,0,0,0,0,0,0,0,0,0,0,0,0,0,0,0,0,0,0,0,0,0,0,0,0,0,0,0,0,
0,88,0,0,0,0,0,0,0,0,0,0,0,0,0,0,0,0,0,0,0,0,0,0,0,0,0,0,0,0,0,0,
0,0,0,0,0,0,0,0,0,0,0,0,0,0,0,0,0,89,0,0,0,0,0,0,0,0,0,0,0,0,0,0,
0,0,0,0,0,0,0,0,0,0,0,0,0,0,90,0,0,85,89,0,0,0,0,0,0,0,0,0,0,0,90,0,
0,0,0,0,0,0,0,0,0,0,0,0,0,0,0,0,0,0,0,0,0,0,0,0,0,0,0,0,0,0,0,0,
0,135,0,0,0,0,0,0,0,87,85,85,85,85,85,85,88,0,0,87,85,88,0,0,0,0,0,0,0,87,85,0,
0,0,0,0,0,0,0,0,0,0,85,85,85,85,85,85,0,0,0,0,85,0,0,0,0,0,0,0,0,0,87,0,
0,87,85,85,88,0,0,0,0,90,85,85,85,85,85,0,0,0,0,0,0,0,0,0,0,0,0,0,0,0,0,0,
0,0,85,85,0,0,0,0,0,0,85,85,85,85,85,0,0,87,85,85,85,85,88,0,0,87,85,85,85,85,85,0,
0,0,85,85,0,0,0,87,85,85,85,85,85,85,85,0,0,0,87,85,85,88,0,0,0,0,87,85,85,85,85,0,
0,90,85,85,0,0,0,0,87,85,85,85,85,85,85,0,0,0,0,85,85,0,0,0,0,0,0,87,85,85,85,0,
0,85,85,85,0,0,0,0,0,87,85,85,0,0,0,0,0,89,0,85,85,0,0,0,0,0,0,0,87,85,85,0,
0,0,0,0,0,0,0,0,0,0,0,0,0,0,0,0,0,0,0,0,0,0,0,0,0,0,0,0,0,0,0,0
</data>
 </layer>
 <layer id="2" name="collision" width="32" height="17">
  <data encoding="csv">
42,42,42,42,42,42,42,42,42,42,42,42,42,42,42,42,42,42,42,42,42,42,42,42,42,42,42,42,42,42,42,42,
42,0,0,0,0,0,0,0,91,0,0,91,0,0,0,42,42,0,0,0,0,0,0,0,0,0,0,0,0,0,0,42,
42,0,0,0,0,0,0,0,0,0,0,0,0,0,0,42,42,0,0,0,0,0,0,0,0,0,0,0,0,0,0,42,
42,0,0,0,0,0,0,0,0,0,0,0,0,0,0,42,42,0,0,0,0,0,0,0,0,0,0,0,0,0,0,42,
42,55,55,42,42,0,0,0,0,0,0,0,0,0,0,42,42,0,0,0,0,0,0,0,0,0,0,0,0,0,0,42,
42,0,0,0,0,0,0,0,0,0,0,42,84,42,0,42,42,0,0,0,0,0,0,0,0,0,0,0,0,0,0,42,
42,0,0,0,0,0,0,0,0,0,0,0,0,0,0,42,42,0,0,0,0,0,0,0,0,0,0,0,0,0,0,42,
42,0,0,0,0,0,0,0,0,0,0,0,0,0,73,42,42,0,0,0,0,0,0,0,0,0,0,0,0,0,0,42,
42,0,0,0,0,0,0,0,0,42,42,42,84,42,42,42,42,42,42,42,42,42,0,0,0,0,0,0,0,42,42,42,
42,0,0,0,0,0,0,0,0,0,0,0,0,0,0,0,0,0,0,0,0,0,0,0,0,0,0,0,0,0,0,42,
42,42,42,42,42,0,0,0,0,0,0,0,0,0,0,0,0,0,0,0,0,0,0,0,0,0,104,0,0,0,0,42,
42,0,0,0,0,0,0,0,0,0,0,0,0,0,0,42,42,42,42,42,84,42,42,0,0,42,42,42,42,42,42,42,
42,0,0,0,0,0,0,42,42,42,0,0,0,0,0,42,42,0,0,0,0,0,0,0,0,0,0,0,0,0,0,42,
84,0,0,0,0,0,0,0,0,0,0,0,0,0,0,42,42,0,0,0,0,0,0,0,0,0,0,0,0,0,0,42,
42,0,0,0,0,0,0,0,0,0,0,0,102,102,102,42,84,0,0,0,0,0,0,0,102,0,0,0,0,0,0,42,
42,0,0,0,0,0,0,0,0,0,0,0,42,42,42,42,42,0,0,0,0,0,102,102,42,102,102,0,0,0,0,42,
42,42,42,42,42,42,42,42,42,42,42,42,42,84,42,42,42,42,42,42,42,42,42,42,42,42,42,42,42,42,42,42
</data>
 </layer>
 <layer id="5" name="decoration" width="32" height="17">
  <data encoding="csv">
0,0,0,0,0,0,0,0,0,0,0,0,0,0,0,0,0,0,0,0,0,0,0,0,0,0,0,61,0,0,0,0,
0,0,0,0,0,0,0,0,91,0,0,91,0,0,0,0,0,0,0,0,0,0,0,0,0,0,0,0,0,0,0,0,
61,0,0,0,0,0,0,0,0,0,0,0,0,0,0,0,0,0,0,0,0,0,0,0,0,0,0,0,0,0,0,0,
0,0,0,0,0,0,0,0,0,0,0,0,0,0,0,0,0,0,0,0,0,0,0,0,0,0,0,0,0,0,0,0,
0,0,0,0,0,0,0,0,0,0,0,0,0,0,0,0,0,0,0,0,0,0,0,0,0,0,0,0,0,0,0,0,
0,0,0,127,0,0,0,0,0,0,0,0,0,0,0,0,0,0,0,0,0,0,0,0,0,0,0,0,0,0,0,0,
0,0,0,0,0,0,0,0,0,0,0,0,0,0,0,0,0,0,0,0,0,0,0,0,0,0,0,0,0,0,0,0,
0,0,0,0,0,0,0,0,0,0,0,0,0,0,0,0,0,0,0,0,0,0,0,0,0,0,0,0,0,0,0,0,
0,0,0,0,0,0,0,0,0,0,0,0,0,0,0,0,0,0,0,0,0,0,0,0,0,0,0,0,0,0,0,60,
0,0,0,0,0,0,0,0,0,0,0,0,0,119,0,0,0,0,0,0,0,0,0,0,0,0,0,0,0,150,0,0,
0,0,0,0,0,0,0,0,0,0,0,0,0,0,0,0,0,0,0,0,0,0,0,0,0,0,0,0,0,0,0,0,
0,0,0,0,0,0,0,0,0,0,0,0,0,0,0,0,0,0,0,0,0,0,0,0,0,0,0,0,0,0,0,0,
0,0,0,0,0,0,0,0,0,0,0,0,0,0,0,0,0,0,0,0,0,0,0,0,0,0,0,0,0,0,0,0,
0,0,0,0,0,0,0,0,0,0,0,0,0,0,0,0,0,0,0,0,0,0,0,0,0,0,0,0,0,0,0,0,
0,0,0,0,0,0,0,0,0,0,0,0,0,0,0,0,0,0,0,0,0,0,0,0,0,0,0,0,0,0,0,0,
0,0,71,0,0,0,0,0,0,0,0,0,0,0,0,0,0,0,0,0,0,0,0,0,0,0,0,0,0,135,69,0,
0,0,0,0,0,0,0,0,0,0,0,0,0,0,0,0,0,0,0,0,0,0,0,0,0,0,0,0,0,0,0,0
</data>
 </layer>
 <objectgroup id="3" name="objects">
  <object id="3" name="playerStart" type="playerStart" x="142" y="1144" width="128" height="128"/>
  <object id="4" name="torchLeft" type="torch" x="0" y="640" width="128" height="128"/>
  <object id="6" name="torchLeft" type="torch" x="1920" y="640" width="128" height="128"/>
  <object id="19" gid="13" x="1152" y="1024" width="128" height="128"/>
  <object id="20" gid="4" x="896" y="1536" width="128" height="128"/>
  <object id="21" gid="13" x="1408" y="640" width="128" height="128"/>
  <object id="22" gid="13" x="1664" y="640" width="128" height="128"/>
  <object id="23" gid="13" x="512" y="512" width="128" height="128"/>
  <object id="24" gid="13" x="128" y="2048" width="128" height="128"/>
  <object id="25" gid="13" x="512" y="2048" width="128" height="128"/>
  <object id="26" gid="13" x="640" y="2048" width="128" height="128"/>
  <object id="27" gid="13" x="1792" y="1792" width="128" height="128"/>
  <object id="29" gid="13" x="2304" y="1024" width="128" height="128"/>
  <object id="30" gid="13" x="3840" y="1408" width="128" height="128"/>
  <object id="31" gid="13" x="3712" y="1408" width="128" height="128"/>
  <object id="32" gid="13" x="2560" y="2048" width="128" height="128"/>
  <object id="33" gid="13" x="2432" y="2048" width="128" height="128"/>
  <object id="34" gid="4" x="128" y="512" width="128" height="128"/>
  <object id="35" gid="4" x="2176" y="2048" width="128" height="128"/>
  <object id="36" gid="4" x="2176" y="1024" width="128" height="128"/>
  <object id="37" gid="4" x="3840" y="1024" width="128" height="128"/>
  <object id="51" name="exitGate" type="exitGate" x="3712" y="1920" width="128" height="128">
   <properties>
    <property name="nextLevel" value="maps/world1/level_05.tmx"/>
   </properties>
  </object>
  <object id="52" gid="4" x="1290.55" y="1030.67" width="128" height="128"/>
  <object id="53" gid="21" x="0" y="1152" width="128" height="156"/>
  <object id="54" gid="21" x="1920" y="1792" width="128" height="156"/>
  <object id="55" gid="21" x="2816" y="1536" width="128" height="156"/>
  <object id="56" gid="21" x="3200" y="1536" width="128" height="156"/>
  <object id="57" gid="21" x="3968" y="896" width="128" height="156"/>
  <object id="58" gid="21" x="3968" y="1920" width="128" height="156"/>
 </objectgroup>
 <objectgroup id="7" name="enemies">
  <object id="44" gid="36" x="1664" y="1408" width="128" height="128">
   <properties>
    <property name="patrolRange" type="float" value="3"/>
   </properties>
  </object>
  <object id="59" gid="39" x="1536" y="1024" width="128" height="104"/>
  <object id="60" gid="39" x="2560" y="1408" width="128" height="104"/>
  <object id="61" gid="39" x="3584" y="1408" width="128" height="104"/>
  <object id="63" gid="40" x="2304" y="2048" width="198" height="161"/>
 </objectgroup>
</map>
