<?xml version="1.0" encoding="UTF-8" standalone="no"?>
<map height="10" infinite="0" nextlayerid="7" nextobjectid="33" orientation="orthogonal" renderorder="right-down" tiledversion="1.11.2" tileheight="128" tilewidth="128" version="1.10" width="24">
  
 <tileset firstgid="1" source="../tileset/dungeon_tiles.tsx"/>
  
 <tileset firstgid="67" source="../tileset/enemy.tsx"/>
  
 <tileset firstgid="74" source="../tileset/items.tsx"/>
  
 <tileset firstgid="104" source="../tileset/bg.tsx"/>
  
 <layer height="10" id="1" name="background" width="24">
    
  <data encoding="csv">
0,0,0,0,0,0,0,0,0,0,0,0,0,0,0,0,0,0,0,0,0,0,0,0,
0,45,48,0,0,0,0,0,0,0,0,0,0,0,47,0,0,0,0,0,0,0,0,0,
0,48,0,0,0,0,0,0,0,0,0,0,0,0,0,0,0,0,0,0,0,129,0,0,
0,0,0,0,18,0,0,0,47,45,48,0,0,0,0,0,0,0,0,0,0,0,0,0,
0,0,0,0,18,0,0,0,0,45,0,0,0,0,0,0,0,18,0,0,0,18,0,0,
0,0,0,0,18,0,0,0,0,45,0,0,0,0,0,94,0,18,0,0,0,0,0,0,
0,0,0,0,18,0,0,0,0,45,0,0,47,48,0,0,0,18,0,0,0,18,0,0,
0,0,0,0,18,0,0,0,0,45,0,0,0,0,0,0,0,18,0,0,0,0,0,0,
0,129,0,0,18,0,0,0,0,0,0,0,0,0,0,18,0,18,0,0,0,18,0,0,
42,42,42,42,42,42,42,42,42,42,42,42,42,42,42,42,0,0,0,0,0,0,0,0
</data>
   
 </layer>
  
 <layer height="10" id="2" name="collision" width="24">
    
  <data encoding="csv">
2,2,2,2,2,2,2,2,2,2,2,2,2,2,2,2,2,2,2,2,2,2,2,2,
2,0,0,0,0,0,0,0,0,0,0,0,0,0,0,2,0,0,0,0,0,0,0,2,
2,0,0,0,0,0,0,0,0,0,0,0,0,0,0,2,0,0,0,0,0,0,0,2,
2,0,0,0,15,15,15,15,15,15,15,0,0,0,0,2,0,2,3,4,5,4,5,2,
2,0,0,0,0,0,0,0,0,0,0,0,0,0,0,2,0,0,0,0,0,0,0,2,
2,0,0,0,15,0,0,0,0,0,0,0,2,2,42,2,2,3,2,3,4,5,0,2,
2,0,0,0,0,0,0,0,0,0,0,0,0,0,0,2,0,0,0,0,0,0,0,2,
2,0,0,0,0,0,0,0,62,62,62,0,0,0,0,2,0,2,3,4,5,4,5,2,
2,0,0,0,0,0,0,0,2,2,2,0,0,0,0,0,0,0,0,0,0,0,0,2,
2,2,2,2,2,2,2,2,2,2,2,2,2,2,2,2,2,2,2,2,2,2,2,2
</data>
   
 </layer>
  
 <layer height="10" id="5" name="Decoration" width="24">
    
  <data encoding="csv">
0,0,0,0,0,0,0,0,0,0,0,0,0,0,0,0,0,0,0,0,0,0,0,0,
0,0,0,0,0,0,0,0,0,0,0,0,121,0,0,94,0,0,0,0,0,0,0,0,
0,0,0,0,0,0,0,0,0,0,0,0,0,0,0,0,0,0,0,0,0,0,0,0,
0,0,0,0,0,0,0,0,0,0,0,0,0,0,0,0,0,0,0,0,0,0,0,0,
0,0,0,0,0,0,0,112,0,0,0,0,0,0,0,0,0,0,0,121,0,0,126,0,
94,0,0,0,0,0,0,0,0,0,0,0,94,0,0,0,0,0,0,0,0,0,0,94,
0,0,0,0,0,0,0,0,0,0,0,0,0,0,126,0,126,0,0,0,0,0,0,0,
0,0,0,0,0,0,0,0,0,0,0,0,0,0,0,0,0,0,0,0,0,0,0,0,
0,0,0,0,0,0,0,0,0,0,0,0,0,0,0,0,0,0,126,0,0,0,0,0,
0,0,0,0,0,0,0,0,0,0,0,0,0,0,0,0,0,0,0,0,0,0,0,0
</data>
   
 </layer>
  
 <objectgroup id="3" name="objects">
    
  <object height="128" id="3" name="playerStart" type="playerStart" width="128" x="128" y="1024"/>
    
  <object height="128" id="6" name="exitGate" type="exitGate" width="128" x="2688" y="256">
      
   <properties>
        
    <property name="nextLevel" value="maps/world1/level_03.tmx"/>
       
   </properties>
     
  </object>
    
  <object gid="71" height="128" id="12" width="128" x="1664" y="1024"/>
    
  <object gid="74" height="128" id="13" width="128" x="1152" y="384"/>
    
  <object gid="86" height="128" id="15" width="128" x="1056" y="384"/>
    
  <object gid="102" height="100" id="28" width="100" x="2816" y="1152"/>
    
  <object gid="73" height="128" id="29" width="128" x="768" y="768"/>
   
 </objectgroup>
  
 <objectgroup id="6" name="enemies">
    
  <object gid="73" height="128" id="22" width="128" x="768" y="640"/>
    
  <object gid="73" height="128" id="23" width="128" x="384" y="896"/>
    
  <object gid="72" height="128" id="24" width="128" x="2688" y="896"/>
    
  <object gid="72" height="128" id="25" width="128" x="2176" y="640"/>
    
  <object gid="74" height="128" id="26" width="128" x="2560" y="384"/>
    
  <object gid="74" height="128" id="27" width="128" x="2304" y="384"/>
    
  <object gid="72" height="128" id="30" width="128" x="2304" y="896"/>
    
  <object gid="73" height="128" id="31" width="128" x="1664" y="512"/>
    
  <object gid="87" height="128" id="32" width="128" x="512" y="384"/>
   
 </objectgroup>
  
 <objectgroup id="4" locked="1" name="Rooms">
    
  <object height="1280" id="2" width="3072" x="0" y="0"/>
   
 </objectgroup>
 
</map>
