<?xml version="1.0" encoding="UTF-8" standalone="no"?>
<map height="10" infinite="0" nextlayerid="7" nextobjectid="32" orientation="orthogonal" renderorder="right-down" tiledversion="1.12.2" tileheight="128" tilewidth="128" version="1.10" width="24">
  
 <tileset firstgid="1" source="../tileset/dungeon_tiles.tsx"/>
  
 <tileset firstgid="70" source="../tileset/enemy.tsx"/>
  
 <tileset firstgid="77" source="../tileset/bg.tsx"/>
  
 <tileset firstgid="124" source="../tileset/items.tsx"/>
  
 <tileset firstgid="155" source="../tileset/hazards.tsx"/>
  
 <layer height="10" id="1" name="background" width="24">
    
  <data encoding="csv">
0,48,0,0,0,0,0,0,0,0,0,0,0,0,0,0,0,0,0,0,0,0,0,0,
0,0,0,0,0,0,0,0,0,0,0,0,0,0,0,0,0,0,0,0,0,0,0,0,
0,0,0,0,0,0,0,0,0,0,0,0,0,0,0,0,0,0,0,0,0,0,0,0,
0,0,0,0,0,18,0,0,0,0,0,0,0,0,0,0,0,0,0,0,0,0,0,0,
0,0,0,0,0,18,0,0,0,0,0,0,0,0,0,0,0,0,0,45,45,45,45,0,
0,0,0,0,0,18,0,0,0,0,0,0,0,0,0,0,0,0,0,45,45,45,45,0,
0,0,0,0,0,18,0,0,0,0,0,0,0,0,0,0,0,0,0,45,45,45,45,0,
0,0,0,0,0,18,0,0,39,39,39,0,0,0,0,0,0,0,0,45,45,45,45,0,
0,0,0,0,0,18,0,0,38,38,38,0,0,0,0,0,0,0,50,45,45,45,45,0,
0,0,0,0,0,0,0,0,0,0,0,0,0,0,0,0,0,0,0,0,0,0,0,0
</data>
   
 </layer>
  
 <layer height="10" id="2" name="collision" width="24">
    
  <data encoding="csv">
42,42,42,42,42,42,42,42,42,42,42,42,42,42,42,42,42,42,42,42,42,42,42,42,
44,0,0,0,0,0,0,0,0,0,0,0,0,0,0,0,0,0,0,0,0,0,0,42,
42,0,0,0,0,2,0,0,0,0,0,0,0,0,0,0,0,0,0,0,0,0,0,42,
42,0,0,0,0,0,0,0,0,0,0,0,0,0,0,0,0,0,0,42,42,42,42,42,
42,0,0,0,0,0,0,0,0,0,0,0,0,0,0,0,0,0,0,0,0,0,0,42,
44,0,0,0,0,0,0,0,0,0,0,42,66,66,66,66,162,162,42,0,0,0,0,42,
42,0,0,0,0,0,0,0,0,0,0,44,0,0,0,0,0,0,0,0,0,0,0,42,
42,0,0,0,0,0,0,44,0,0,0,42,0,0,0,0,0,0,0,0,0,0,0,42,
42,0,0,0,0,0,0,42,0,33,0,42,62,0,0,0,0,0,0,0,0,0,0,42,
44,42,42,42,42,42,42,42,42,42,44,42,42,42,42,42,42,42,42,42,42,42,42,42
</data>
   
 </layer>
  
 <layer height="10" id="5" name="Decoration" width="24">
    
  <data encoding="csv">
0,0,0,0,0,0,0,0,0,0,0,0,0,0,0,0,0,0,0,0,0,0,0,0,
0,0,0,0,0,0,0,0,0,0,0,99,0,0,0,99,0,0,86,0,0,0,0,0,
0,0,0,0,0,144,0,0,0,0,0,0,0,0,0,0,0,0,0,0,0,102,0,0,
0,0,0,0,0,0,0,0,0,0,0,0,0,0,0,0,0,0,0,0,0,0,0,0,
0,0,0,0,0,0,0,0,0,0,0,0,0,0,0,0,0,0,0,99,0,0,0,0,
144,0,0,0,0,0,0,0,0,0,0,144,0,0,0,0,0,0,144,0,0,0,0,144,
0,0,0,0,0,0,0,0,0,0,0,0,0,0,0,0,0,0,0,0,0,0,0,0,
0,0,0,0,0,0,0,144,0,0,0,0,0,0,0,0,0,0,0,0,0,0,0,0,
0,102,0,0,0,0,0,0,0,0,0,0,0,0,0,0,0,0,0,0,0,0,0,0,
0,0,0,0,0,0,0,0,0,0,0,0,0,0,0,0,0,0,0,0,0,0,0,0
</data>
   
 </layer>
  
 <objectgroup id="3" name="objects">
    
  <object height="128" id="3" name="playerStart" type="playerStart" width="128" x="128" y="1024"/>
    
  <object height="152" id="6" name="exitGate" type="exitGate" width="140" x="2688" y="256">
      
   <properties>
        
    <property name="isFinal" value="true"/>
        
    <property name="nextLevel" value="maps/world1/level_01.tmx"/>
       
   </properties>
     
  </object>
    
  <object gid="74" height="128" id="12" width="128" x="2176" y="1152"/>
    
  <object gid="77" height="128" id="13" width="128" x="1792" y="1152"/>
    
  <object gid="77" height="128" id="25" width="128" x="1920" y="640"/>
    
  <object gid="77" height="128" id="26" width="128" x="2560" y="384"/>
    
  <object gid="77" height="128" id="27" width="128" x="2688" y="1152"/>
    
  <object gid="77" height="128" id="28" width="128" x="896" y="896"/>
    
  <object gid="75" height="128" id="29" width="128" x="2304" y="640"/>
    
  <object gid="157" height="128" id="30" width="128" x="1024" y="384">
      
   <properties>
        
    <property name="amplitudeX" type="float" value="2"/>
       
   </properties>
     
  </object>
    
  <object gid="137" height="128" id="31" width="128" x="640" y="256"/>
   
 </objectgroup>
  
 <objectgroup id="6" name="enemies"/>
  
 <objectgroup id="4" locked="1" name="Rooms" visible="0">
    
  <object height="1283.51" id="2" width="3072" x="0" y="0"/>
   
 </objectgroup>
 
</map>
