<?xml version="1.0" encoding="UTF-8"?>
<map version="1.10" tiledversion="1.11.2" orientation="orthogonal" renderorder="right-down" width="30" height="14" tilewidth="128" tileheight="128" infinite="0" nextlayerid="8" nextobjectid="545">
 <tileset firstgid="1" source="../tileset/dungeon_tiles.tsx"/>
 <tileset firstgid="70" source="../tileset/items.tsx"/>
 <tileset firstgid="101" source="../tileset/enemy.tsx"/>
 <tileset firstgid="110" source="../tileset/bg.tsx"/>
 <layer id="1" name="background" width="30" height="14">
  <data encoding="csv">
0,0,0,0,0,0,0,0,0,0,0,0,0,0,0,0,0,0,0,0,0,0,0,0,0,0,0,0,0,0,
0,0,0,0,0,0,0,0,0,0,0,0,6,7,6,0,0,0,0,0,0,0,0,0,0,0,0,0,0,0,
0,0,0,0,0,0,0,0,0,0,0,0,6,6,7,0,0,0,0,0,0,0,0,0,0,0,0,0,0,0,
0,0,0,0,0,0,0,0,0,0,0,0,6,7,6,0,0,0,0,0,0,0,0,0,0,0,0,0,0,0,
0,0,18,0,0,0,0,0,0,0,0,0,6,6,6,0,0,0,0,0,0,0,0,0,0,0,0,0,0,0,
0,0,18,0,0,0,0,0,0,0,8,6,7,6,6,6,9,0,0,0,0,0,18,0,0,0,18,0,0,0,
0,0,18,0,0,0,0,0,0,0,0,8,6,6,7,9,0,0,0,0,0,0,18,0,0,0,18,0,0,0,
0,135,18,0,0,0,0,0,0,0,0,0,0,0,0,0,0,0,0,0,0,0,18,0,0,0,18,0,0,0,
0,0,0,0,0,0,0,0,0,0,0,0,0,18,0,0,0,0,0,0,39,39,0,0,0,0,0,0,0,0,
0,45,45,45,45,45,45,45,45,0,0,0,0,18,0,0,0,9,0,8,0,0,9,0,0,0,0,0,0,0,
0,45,45,45,45,45,45,45,45,0,0,0,0,18,0,0,9,0,0,0,7,7,0,0,0,0,0,0,0,0,
0,45,45,45,45,45,45,45,45,0,0,0,0,0,0,9,0,0,21,0,7,7,0,0,0,0,0,0,0,0,
0,45,45,45,45,45,45,45,45,45,45,45,45,45,45,49,0,0,16,0,7,7,0,0,0,0,0,135,0,0,
0,0,0,0,0,0,0,0,0,0,0,0,0,0,0,0,0,0,0,0,0,0,0,0,0,0,0,0,0,0
</data>
 </layer>
 <layer id="2" name="collision" width="30" height="14">
  <data encoding="csv">
2,2,2,2,2,2,2,2,2,2,2,2,2,2,2,2,2,2,2,2,2,2,2,2,2,2,2,2,2,2,
2,0,0,0,0,0,0,0,0,0,0,0,0,0,0,0,0,0,0,0,0,0,0,0,0,0,0,0,0,2,
2,0,0,0,0,0,0,0,0,0,0,0,0,0,0,0,0,0,0,0,0,0,0,0,0,0,0,0,0,2,
2,5,3,2,0,2,4,0,0,0,0,0,0,0,0,0,0,0,0,0,0,0,2,0,0,0,0,0,0,2,
2,0,0,0,0,0,0,0,0,0,2,4,0,0,0,4,2,0,0,0,0,0,2,2,2,2,2,0,0,2,
2,0,0,0,0,0,0,0,0,0,0,0,0,0,0,0,0,0,0,0,0,0,0,0,0,0,0,0,0,2,
2,0,0,0,0,0,0,0,0,0,0,0,0,0,0,0,0,0,0,0,0,0,0,0,0,0,0,0,0,2,
2,0,0,0,0,0,0,0,0,0,0,0,2,2,2,0,0,0,0,62,0,0,62,0,0,0,0,62,62,2,
2,2,2,2,2,2,2,2,2,2,0,0,0,0,0,0,0,2,2,2,33,33,2,2,2,2,2,2,2,2,
2,0,0,51,0,0,51,0,0,2,0,0,0,0,0,0,1,0,0,0,2,2,0,0,0,0,0,0,0,2,
2,0,0,0,0,0,0,0,0,2,0,0,0,0,0,1,0,0,0,0,0,0,0,0,0,0,0,0,0,2,
2,0,0,0,0,0,0,0,0,2,2,2,2,2,2,0,0,0,0,0,0,0,0,0,0,0,0,0,0,2,
2,0,0,0,0,0,0,0,0,0,0,0,0,0,0,0,0,0,26,0,0,0,0,0,0,0,0,0,62,2,
2,3,3,3,3,3,3,3,3,3,3,3,3,3,3,3,3,3,3,3,3,3,3,3,3,3,3,3,3,2
</data>
 </layer>
 <layer id="5" name="decoration" width="30" height="14">
  <data encoding="csv">
0,0,0,0,0,0,0,0,0,0,0,0,0,0,0,0,0,0,0,0,0,0,0,0,0,0,0,0,0,0,
0,0,0,0,0,0,0,0,0,0,0,0,0,0,0,0,0,0,0,0,0,0,0,0,0,0,0,0,0,0,
0,0,0,0,0,0,0,0,0,0,0,0,0,0,0,0,0,0,0,0,0,0,0,0,0,0,0,0,0,0,
0,0,0,0,0,0,0,0,0,0,0,0,0,0,0,0,0,0,0,0,0,0,0,0,0,0,0,0,0,0,
0,0,0,0,0,125,0,0,0,0,0,0,0,0,0,0,0,0,0,0,0,0,0,0,0,0,0,0,0,0,
0,0,0,0,0,0,0,0,0,0,0,0,0,0,0,0,0,0,0,0,0,0,0,0,0,0,0,0,0,0,
0,0,0,0,0,0,0,0,0,0,0,0,0,0,0,0,0,0,0,0,0,0,0,0,0,0,0,0,0,0,
0,0,0,0,0,0,0,0,0,0,0,0,0,0,0,0,0,0,0,0,0,0,0,0,0,0,0,0,0,0,
0,0,0,0,0,0,0,0,0,0,0,0,0,0,0,0,0,0,0,0,0,0,0,0,0,0,0,0,0,0,
0,0,132,0,0,0,0,0,0,0,0,0,0,0,0,0,0,0,0,0,0,0,0,0,0,0,0,0,0,0,
0,0,0,0,126,0,0,0,0,0,0,0,0,0,0,0,0,0,0,0,0,0,0,0,0,0,0,0,0,0,
0,0,0,0,0,0,0,0,0,0,0,0,0,0,0,0,0,0,0,0,0,0,0,0,0,0,0,0,0,0,
0,0,0,0,0,0,0,0,0,0,0,0,0,31,0,0,0,0,0,0,0,0,0,0,0,0,0,0,0,0,
0,0,0,0,0,0,0,0,0,0,0,0,0,0,0,0,0,0,0,0,0,0,0,0,0,0,0,0,0,0
</data>
 </layer>
 <objectgroup id="3" name="objects">
  <object id="1" name="playerStart" type="playerStart" x="128" y="896" width="128" height="128"/>
  <object id="529" gid="2" x="1152" y="1536" width="128" height="128"/>
  <object id="533" gid="90" x="2816" y="642" width="128" height="156"/>
  <object id="534" gid="90" x="3720" y="646" width="128" height="156"/>
  <object id="535" gid="75" x="128" y="1664" width="128" height="128"/>
  <object id="539" gid="108" x="384" y="1664" width="128" height="104"/>
  <object id="540" gid="108" x="1152" y="1664" width="128" height="104"/>
  <object id="541" gid="108" x="2432" y="1664" width="128" height="104"/>
  <object id="542" gid="108" x="2944" y="1664" width="128" height="104"/>
  <object id="543" gid="108" x="256" y="384" width="128" height="104"/>
  <object id="544" gid="90" x="0" y="768" width="128" height="156"/>
 </objectgroup>
 <objectgroup id="7" name="enemies">
  <object id="512" name="exitGate" type="exitGate" x="3456" y="1536" width="128" height="128">
   <properties>
    <property name="nextLevel" value="maps/world1/level_08.tmx"/>
   </properties>
  </object>
  <object id="513" gid="107" x="2944" y="896" width="128" height="128"/>
  <object id="521" gid="107" x="1536" y="1152" width="128" height="128"/>
  <object id="522" gid="107" x="640" y="768" width="128" height="128"/>
  <object id="523" gid="107" x="1024" y="1280" width="128" height="128"/>
  <object id="536" gid="106" x="640" y="1664" width="128" height="128"/>
  <object id="537" gid="106" x="1664" y="896" width="128" height="128"/>
 </objectgroup>
 <objectgroup id="6" name="Rooms" visible="0" locked="1">
  <object id="511" name="room0" x="0" y="0" width="3840" height="2176"/>
 </objectgroup>
</map>
