<?xml version="1.0" encoding="UTF-8"?>
<map version="1.10" tiledversion="1.12.2" orientation="orthogonal" renderorder="right-down" width="24" height="12" tilewidth="128" tileheight="128" infinite="0" nextlayerid="7" nextobjectid="41">
 <tileset firstgid="1" source="../tileset/dungeon_tiles.tsx"/>
 <tileset firstgid="70" source="../tileset/enemy.tsx"/>
 <tileset firstgid="77" source="../tileset/items.tsx"/>
 <tileset firstgid="108" source="../tileset/bg.tsx"/>
 <layer id="1" name="background" width="24" height="12">
  <data encoding="csv">
0,0,0,0,0,0,0,0,0,0,0,0,0,0,0,0,0,0,0,0,0,0,0,0,
0,0,0,0,0,0,0,0,0,0,0,0,0,0,0,0,0,0,0,6,6,6,6,0,
0,0,0,0,0,0,0,0,0,0,0,0,0,0,0,0,0,0,0,6,6,6,6,0,
0,0,0,0,0,0,0,0,47,45,48,0,0,0,0,0,0,0,0,6,6,6,6,0,
0,0,0,0,0,0,0,0,0,45,0,0,0,0,0,0,0,0,0,6,6,6,6,0,
0,0,0,0,0,0,0,0,0,45,0,0,0,0,0,0,0,0,0,6,6,6,6,0,
0,0,0,0,0,0,0,0,0,45,0,0,47,48,0,0,0,0,0,0,0,0,0,0,
0,0,0,0,0,0,0,0,0,45,45,48,0,0,0,0,0,0,0,6,6,6,6,0,
0,0,0,0,0,0,0,0,0,45,48,0,0,0,0,0,0,0,0,6,6,6,6,0,
0,0,0,0,0,0,47,48,0,45,0,0,0,0,0,0,18,0,0,6,6,6,6,0,
0,133,0,0,0,0,0,0,0,45,0,0,0,0,0,0,18,0,0,6,6,6,6,0,
0,0,0,0,0,0,0,0,0,0,0,0,0,0,0,0,0,0,0,0,0,0,0,0
</data>
 </layer>
 <layer id="2" name="collision" width="24" height="12">
  <data encoding="csv">
2,2,2,2,2,2,2,2,2,2,2,2,2,2,2,2,2,2,2,2,2,2,2,2,
2,0,0,0,0,0,0,0,0,0,0,0,0,0,0,0,0,0,0,0,0,0,0,2,
2,0,0,0,0,0,0,0,0,0,0,0,0,0,0,0,0,0,0,0,0,0,0,2,
2,0,0,0,0,0,0,0,15,15,15,0,0,0,0,0,0,0,0,0,0,0,0,2,
2,0,0,0,0,0,0,0,0,0,0,0,0,33,0,0,0,0,0,0,0,0,0,2,
2,2,2,0,0,0,1,1,0,0,0,0,2,4,0,0,0,0,0,0,0,0,0,2,
2,0,0,0,0,0,0,0,0,0,2,4,0,0,0,0,16,0,0,4,5,4,5,2,
2,0,0,0,0,0,0,0,0,0,0,0,0,0,0,0,17,0,0,0,0,0,0,2,
2,0,0,0,0,0,2,2,0,0,0,0,0,0,0,0,3,0,0,0,0,0,0,2,
2,0,0,0,0,0,0,0,0,0,0,0,0,0,0,0,0,0,0,0,0,0,0,2,
2,0,0,0,0,0,0,0,0,62,62,0,0,0,0,0,0,0,0,0,0,0,0,2,
2,2,2,2,2,2,2,2,2,2,2,2,2,2,2,2,2,2,2,2,2,2,2,2
</data>
 </layer>
 <layer id="5" name="Decoration" width="24" height="12">
  <data encoding="csv">
0,0,0,0,0,0,0,0,0,0,0,0,0,0,0,0,0,0,0,0,0,0,0,0,
0,0,0,0,0,0,0,0,0,0,0,0,0,0,0,0,0,0,0,0,130,0,0,0,
0,0,0,0,0,0,0,0,0,0,0,0,0,0,0,0,0,0,0,0,0,0,0,0,
0,0,0,0,0,0,0,0,0,0,0,0,0,0,0,0,0,0,0,0,0,0,0,0,
0,0,0,0,0,0,0,0,0,0,0,0,0,0,0,0,0,0,0,0,0,0,0,0,
97,0,0,0,0,0,0,0,0,0,0,0,0,0,0,0,0,0,0,0,0,133,0,0,
0,0,0,0,0,0,0,0,0,0,0,0,0,0,0,0,0,0,0,0,0,0,0,0,
0,0,0,0,0,0,0,0,0,0,0,0,0,0,0,0,0,0,0,0,125,0,0,0,
0,0,0,0,0,0,0,0,0,0,0,0,0,0,0,0,0,0,0,0,0,0,0,0,
0,0,0,0,0,0,0,0,0,0,0,0,0,0,0,0,0,0,0,0,97,0,0,0,
0,0,0,0,0,0,0,0,0,0,0,0,0,0,0,0,0,0,0,0,0,0,0,0,
0,0,0,0,0,0,0,0,0,0,0,0,0,0,0,0,0,0,0,0,0,0,0,0
</data>
 </layer>
 <objectgroup id="3" name="objects">
  <object id="3" name="playerStart" type="playerStart" x="128" y="1280" width="128" height="128"/>
  <object id="6" name="exitGate" type="exitGate" x="2688" y="640" width="128" height="128">
   <properties>
    <property name="nextLevel" value="maps/world1/level_02.tmx"/>
   </properties>
  </object>
  <object id="13" gid="72" x="1536" y="1408" width="128" height="128"/>
  <object id="21" gid="89" x="768" y="1024" width="128" height="128"/>
  <object id="22" gid="89" x="896" y="1024" width="128" height="128"/>
  <object id="23" gid="89" x="1024" y="384" width="128" height="128"/>
  <object id="24" gid="89" x="1152" y="384" width="128" height="128"/>
  <object id="25" gid="89" x="1280" y="384" width="128" height="128"/>
  <object id="26" gid="89" x="1536" y="640" width="128" height="128"/>
  <object id="27" gid="89" x="1152" y="1280" width="128" height="128"/>
  <object id="28" gid="89" x="1280" y="1280" width="128" height="128"/>
  <object id="34" gid="103" x="640" y="1408" width="101" height="101"/>
  <object id="37" gid="90" x="128" y="640" width="128" height="128"/>
  <object id="38" gid="97" x="2944" y="640" width="128" height="156"/>
  <object id="40" gid="72" x="2688" y="1408" width="128" height="128"/>
 </objectgroup>
 <objectgroup id="6" name="enemies">
  <object id="30" gid="73" x="896" y="1408" width="256" height="256"/>
  <object id="35" gid="76" x="512" y="640" width="128" height="128"/>
  <object id="36" gid="75" x="1280" y="768" width="128" height="128"/>
 </objectgroup>
 <objectgroup id="4" name="Rooms" locked="1">
  <object id="2" x="0" y="0" width="3072" height="1539.51"/>
 </objectgroup>
</map>
