<?xml version="1.0" encoding="UTF-8"?>
<map version="1.10" tiledversion="1.12.0" orientation="orthogonal" renderorder="right-down" width="16" height="12" tilewidth="128" tileheight="128" infinite="0" nextlayerid="5" nextobjectid="7">
 <tileset firstgid="1" source="cave_tileset.tsx"/>
 <layer id="1" name="background" width="16" height="12">
  <data encoding="csv">
0,0,0,0,0,0,0,0,0,0,0,0,0,0,0,0,
0,0,0,0,0,0,0,0,0,0,0,0,0,0,0,0,
0,0,0,0,0,0,0,0,0,0,0,0,0,0,0,0,
0,0,0,0,0,0,0,0,0,0,0,0,0,0,0,0,
0,0,0,0,0,0,0,0,0,0,0,0,0,0,0,0,
0,0,0,0,0,0,0,0,0,0,0,0,0,0,0,0,
0,0,0,0,0,0,0,0,0,0,0,0,0,0,0,0,
0,0,0,0,0,0,0,0,0,0,0,0,0,0,0,0,
0,0,0,0,0,0,0,0,0,0,0,0,0,0,0,0,
0,0,0,0,0,0,0,0,0,0,0,0,0,0,0,0,
0,0,0,0,0,0,0,0,0,0,0,0,0,0,0,0,
0,0,0,0,0,0,0,0,0,0,0,0,0,0,0,0
</data>
 </layer>
 <layer id="2" name="collision" width="16" height="12">
  <data encoding="csv">
2,2,2,2,2,2,2,2,2,2,2,2,2,2,2,2,
2,0,0,0,0,0,0,0,0,0,0,0,0,0,0,2,
2,0,0,0,0,0,0,0,0,0,0,0,0,0,0,2,
2,0,0,0,0,0,0,2,2,2,0,0,0,0,0,2,
2,0,2,2,2,0,0,0,0,0,0,0,0,0,0,2,
2,0,0,0,0,0,0,0,0,0,0,0,2,2,0,2,
2,0,0,0,0,0,0,0,0,0,0,0,0,0,0,2,
2,0,0,0,0,0,0,0,0,0,0,0,0,0,0,2,
2,0,0,0,0,0,0,0,0,0,0,0,0,0,0,2,
2,0,0,0,0,0,0,0,0,0,0,0,0,0,0,2,
2,0,0,0,0,0,0,0,0,0,0,0,0,0,0,2,
2,1,1,1,1,1,1,1,1,1,1,1,1,1,1,2
</data>
 </layer>
 <objectgroup id="3" name="objects">
  <object id="3" name="playerStart" type="playerStart" x="256" y="1152" width="128" height="128"/>
  <object id="4" name="torchLeft" type="torch" x="0" y="640" width="128" height="128"/>
  <object id="5" name="enemy1" type="enemy" x="1437.04" y="1307.28" width="68" height="88"/>
  <object id="6" name="exitGate" type="exitGate" x="1773.36" y="1244.03" width="140" height="152">
   <properties>
    <property name="nextLevel" value="maps/level1/level_1_demo_2.tmx"/>
   </properties>
  </object>
 </objectgroup>
 <objectgroup id="4" name="Rooms" visible="0" locked="1">
  <object id="2" x="0" y="0" width="2048" height="1024"/>
 </objectgroup>
</map>
